**kern	**dynam	**kern	**dynam	**kern	**dynam	**kern	**dynam	**mxhm
*part4	*part4	*part3	*part3	*part2	*part2	*part1	*part1	*part1
*staff4	*	*staff3	*	*staff2	*	*staff1	*	*
*I"Cello	*	*I"Viola	*	*I"2nd Violin	*	*I"1st Violin	*	*
*clefF4	*	*clefC3	*	*clefG2	*	*clefG2	*	*
*k[b-]	*	*k[b-]	*	*k[b-]	*	*k[b-]	*	*
*F:	*	*F:	*	*F:	*	*F:	*	*
*M2/4	*	*M2/4	*	*M2/4	*	*M2/4	*	*
=1	=1	=1	=1	=1	=1	=1	=1	=1
.	.	(32qqG/LLL	.	.	.	.	.	.
!LO:TX:a:Bi:t=p	!	!	!	!	!	!	!	!
.	.	32qqA/JJJ	.	.	.	.	.	.
4r	.	4B-)	.	2r	.	4r	.	F other
(4DD-X	.	((8..FL	<	.	.	4r	.	.
.	.	32GJkk))	>]	.	.	.	.	.
=2	=2	=2	=2	=2	=2	=2	=2	=2
!	!	!	!	!	!	!LO:TX:a:Bi:t=pp	!	!
8CC)	.	8E	]	2r	.	8r	.	V7
.	.	.	.	.	.	(32qqg/LLL	.	.
.	.	.	.	.	.	32qqa/JJJ	.	.
8r	.	8r	.	.	.	8b-')	.	.
4r	.	4r	.	.	.	4r	.	.
=3	=3	=3	=3	=3	=3	=3	=3	=3
.	.	(32qqG/LLL	.	.	.	.	.	.
.	.	32qqA/JJJ	.	.	.	.	.	.
4r	.	4B-)	.	4r	.	2r	.	iv6
(4DD-X	< > ]]	(8..FL	<	4B-	< > ]]	.	.	.
.	.	32GJkk)	>]	.	.	.	.	.
=4	=4	=4	=4	=4	=4	=4	=4	=4
!	!	!LO:TX:a:Bi:t=p	!	!	!	!	!	!
!	!	!LO:TX:a:Bi:t=sf	!	!	!	!LO:TX:a:Bi:t=sf	!	!
8CC)	]	8E	]	8G 8e	]	8r	.	V7
.	.	.	.	(32qqg/LLL	.	(32qqee/LLL	.	.
.	.	.	.	32qqa/JJJ	.	32qqff/JJJ	.	.
8r	.	8r	.	8b-')	.	8gg')	.	.
8r	.	16.r	.	4r	.	4r	.	V2
.	.	(32GKLL	.	.	.	.	.	.
!LO:TX:a:t=pizz.	!	!	!	!	!	!	!	!
8BB-	.	16C	.	.	.	.	.	.
.	.	16EJJ	.	.	.	.	.	.
=5	=5	=5	=5	=5	=5	=5	=5	=5
!	!	!LO:TX:a:Bi:t=p	!	!	!	!	!	!
8AAL	.	8F')	.	16.r	.	4r	.	I
.	.	.	.	(32aKLL	.	.	.	.
8FFJ	.	8r	.	16c	.	.	.	.
.	.	.	.	16fJJ	.	.	.	.
8EEL	.	4r	.	8g')	.	16.r	.	V65
.	.	.	.	.	.	(32b-KLL	.	.
8CCJ	.	.	.	8r	.	16c	.	V7
.	.	.	.	.	.	16gJJ)	.	.
=6	=6	=6	=6	=6	=6	=6	=6	=6
!	!	!	!	!	!	!LO:TX:a:Bi:t=p	!	!
8r	.	8r	.	8r	.	16.aLL	.	I
.	.	.	.	.	.	32b-JJk	.	.
8FF	.	(16.FLL	.	(16.ALL	.	4cc	.	.
.	.	32GJJk	.	32B-JJk	.	.	.	.
4r	.	16ALL)	.	8c')	.	.	.	.
.	.	(16f	.	.	.	.	.	.
.	.	16e	.	8r	.	8r	.	.
.	.	16dJJ	.	.	.	.	.	.
=7	=7	=7	=7	=7	=7	=7	=7	=7
!	!	!	!	!	!	!LO:TX:b:Bi:t=p	!	!
8r	.	8c)	.	2r	.	16r	.	ii6
.	.	.	.	.	.	(16ddLL	.	.
8BB-L	.	8r	.	.	.	16b-	.	.
.	.	.	.	.	.	16gJJ	.	.
8C	.	16r	.	.	.	8f)	.	V(4)
.	.	(16GLL	.	.	.	.	.	.
8CJ	.	16E	.	.	.	8r	.	V
.	.	16CJJ)	.	.	.	.	.	.
=8	=8	=8	=8	=8	=8	=8	=8	=8
4r	.	(16.ALL	.	8r	.	8r	.	I6
.	.	32B-JK)	.	.	.	.	.	.
.	.	[8cJ	.	(16.fLL	.	(16.aLL	.	.
.	.	.	.	32gJJk	.	32b-JJk	.	.
8AAL	.	16cLL]	.	8f')	.	16ccLL)	.	.
.	.	32r	.	.	.	32r	.	.
.	.	(32fK	.	.	.	(32ffK	.	IV
8BB-J	.	16e	.	8r	.	16ee	.	.
.	.	16dJJ	.	.	.	16ddJJ	.	.
=9	=9	=9	=9	=9	=9	=9	=9	=9
!LO:TX:a:Bi:t=poco cresc.	!	!	!	!LO:TX:a:Bi:t=poco cresc.	!	!	!	!
8r	.	16c'LL)	.	16.r	.	16ccLL)	.	I-V
.	.	32r	.	.	.	32r	.	.
.	.	(32dK	.	(32ddKLL	.	(32dddK	.	.
8BB-L	.	16B-	.	16b-	.	16bb-	.	ii6
.	.	16GJJ	.	16gJJ	.	16ggJJ	.	.
8C	.	16F'LL)	.	16f'LL)	.	16ff'LL)	.	V(4)
.	.	32r	.	32r	.	32r	.	.
.	.	(32GK	.	(32gK	.	(32ggK	.	.
8CCJ	.	16E	.	16e	.	16ee	.	V
.	.	16CJJ	.	16cJJ	.	16ccJJ	.	.
=10	=10	=10	=10	=10	=10	=10	=10	=10
!LO:TX:a:Bi:t=p	!	!LO:TX:a:Bi:t=p	!	!	!	!LO:TX:a:Bi:t=p	!	!
8FF	.	8F)	.	8f)	.	8ff)	.	I\\
8r	.	8r	.	8r	.	8r	.	.
!LO:TX:a:t=arco	!	!	!	!	!	!	!	!
(4C	>	(4c	>	4r	>	(4cc	>	V
=11	=11	=11	=11	=11	=11	=11	=11	=11
4DD)	.	4D)	.	4r	.	4d)	.	@none
(4AA	] >	(4A	] >	(4A	] >	(4a	] >	.
=12	=12	=12	=12	=12	=12	=12	=12	=12
4GG)	.	4G)	.	4G)	.	4g)	.	.
(4D	] >	(4d	] >	4r	] >	(4dd	] >	.
=13	=13	=13	=13	=13	=13	=13	=13	=13
4EE)	.	4E)	.	4r	.	4e)	.	viio
(4BB-	] >	(4B-	] >	(4B-	] >	(4b-	] >	.
=14	=14	=14	=14	=14	=14	=14	=14	=14
4AA)	.	4A)	.	4A)	.	4a)	.	vi
4DD	]	4F	]	(4A	]	(4aa	]	.
=15	=15	=15	=15	=15	=15	=15	=15	=15
!	!	!LO:TX:a:Bi:t=cresc.	!	!	!	!	!	!
!	!	!LO:TX:a:Bi:t=p	!	!	!	!	!	!
!LO:TX:a:Bi:t=cresc.	!	!LO:TX:a:Bi:t=p	!	!LO:TX:a:Bi:t=cresc.	!	!LO:TX:a:Bi:t=p	!	!
[2GG	.	[2D	.	[2Bn)	.	[4ff)	.	V7/V
.	.	.	.	.	.	(24ffLL]	.	.
.	.	.	.	.	.	24ee	.	.
.	.	.	.	.	.	24ddJJ	.	.
.	.	.	.	.	.	24ccLL	.	.
.	.	.	.	.	.	24bn	.	.
.	.	.	.	.	.	24ddJJ)	.	.
=16	=16	=16	=16	=16	=16	=16	=16	=16
8GGL]	.	8DL]	.	8BL]	.	(24gLL	.	.
.	.	.	.	.	.	24f#X	.	.
.	.	.	.	.	.	24gJJ	.	.
8GG'J	.	8G'J 8d	.	8Bn'J 8f	.	24aLL	.	.
.	.	.	.	.	.	24bn	.	.
.	.	.	.	.	.	24ccJJ	.	.
8GG'L	.	8G'L 8d	.	8B'L 8f	.	24ddLL	.	.
.	.	.	.	.	.	24ee	.	.
.	.	.	.	.	.	24ffJJ	.	.
8GG'J	.	8G'J 8d	.	8B'J 8f	.	24ggLL	.	.
.	.	.	.	.	.	24aa	.	.
.	.	.	.	.	.	24bbnJJ)	.	.
=17	=17	=17	=17	=17	=17	=17	=17	=17
!LO:TX:a:Bi:t=f	!	!LO:TX:a:Bi:t=f	!	!LO:TX:a:Bi:t=p	!	!LO:TX:a:Bi:t=f	!	!
8CC	.	8C 8c	.	8G 8e	.	8ccc	.	V
8r	.	8r	.	8r	.	(16.bbnLL	.	.
.	.	.	.	.	.	32dddJJk)	.	.
4r	.	8r	.	8r	.	8ccc'L	.	.
.	.	(16.DLL	.	(16.BnLL	.	8ccc'J	.	.
.	.	32FJJk)	.	32dJJk)	.	.	.	.
=18	=18	=18	=18	=18	=18	=18	=18	=18
!LO:TX:b:Bi:t=p	!	!	!	!	!	!	!	!
!LO:TX:a:Bi:t=p	!	!LO:TX:a:Bi:t=p	!	!	!	!	!	!
8r	.	8E'L	.	8c'L	.	[2ccc	.	#viio7/ii
(16.EELL	.	8E'J	.	(16.gL	.	.	.	.
32GGJJk)	.	.	.	32b-XJJk)	.	.	.	.
8FF#X'L	.	[4E-X	.	8a'L	.	.	.	.
8FF#'J	.	.	.	[8e-XJ	.	.	.	.
=19	=19	=19	=19	=19	=19	=19	=19	=19
(4FF#X	.	(8E-L]	.	(8e-L]	.	(16.cccLL]	.	.
.	.	.	.	.	.	32ff#XJJk)	.	.
.	.	16.F#XL	.	8dJ)	.	8bb-X'L	.	.
.	.	32B-JJk)	.	.	.	.	.	.
[4BB-)	.	8D'L	.	8d'L	.	8bb-'	.	ii6
.	.	8D'J	.	8g'J	.	8bb-'J	.	.
=20	=20	=20	=20	=20	=20	=20	=20	=20
(16.BB-LL]	.	8DL	.	8g	.	[2bb-	.	viio6
32DDJJk)	.	.	.	.	.	.	.	.
8GG'L	.	(16.DL	.	8r	.	.	.	.
.	.	32FnJJk)	.	.	.	.	.	.
8GG'	.	8En'L	.	8r	.	.	.	.
8GG'J	.	8E'J	.	(16.gLL	.	.	.	.
.	.	.	.	32b-JJk)	.	.	.	.
=21	=21	=21	=21	=21	=21	=21	=21	=21
8GGL	.	(16.ELL	.	8c'L	.	(8bb-L]	.	V43
.	.	32GJJk)	.	.	.	.	.	.
8FF	.	8F	.	8c'J	.	16.ggL	.	I(9)
.	.	.	.	.	.	32bb-JJk)	.	.
8FF'	.	(4cc	.	8a'L	.	8aa'L	.	I
8FF'J	.	.	.	8a'J	.	8aa'J	.	.
=22	=22	=22	=22	=22	=22	=22	=22	=22
8r	.	4f)	.	4r	.	8aaL	.	.
*clefC4	*	*	*	*	*	*	*	*
(16.c#XLL	.	.	.	.	.	(16.eL	.	#viio/vi
32eJJk)	.	.	.	.	.	32gJJk)	.	.
8d'L	.	(4a	.	(4ff	.	8f'L	.	vi
8d'J	.	.	.	.	.	8f'J	.	.
=23	=23	=23	=23	=23	=23	=23	=23	=23
!	!	!	!	!	!	!LO:TX:b:Bi:t=f	!	!
4r	.	8dL)	.	8bnL)	.	2r	.	#viio2/V
.	.	(16.eL	.	(16.cc#XL	.	.	.	.
.	.	32gJJk)	.	32eeJJk)	.	.	.	.
*clefF4	*	*	*	*	*	*	*	*
(4A-X	.	8f'L	.	8dd'L	.	.	.	.
.	.	8f'J	.	8dd'J	.	.	.	.
=24	=24	=24	=24	=24	=24	=24	=24	=24
8BBnL)	.	(8fL	.	8ddL	.	4r	.	#viio7/V
(16.BBL	.	16.dL	.	16.ddL	.	.	.	.
32DJJk)	.	32BnJJk)	.	32ffJJk	.	.	.	.
8C'L	.	8B-X'L	.	8ee'L	.	(4gg	>]	V7
8C'J	.	8B-'J	.	8ee'J	.	.	.	.
=25	=25	=25	=25	=25	=25	=25	=25	=25
16FLL	.	16ALL	.	16aLL	.	[4cc)	.	I\\
16F	.	16A	.	16f 16a	.	.	.	.
16F	.	16A	.	16f 16a	.	.	.	.
16FJJ	.	16AJJ	.	16fJJ 16a	.	.	.	.
8F	.	8A	.	8f 8a	.	16ccLL]	.	I
.	.	.	.	.	.	(16ff	.	.
8r	.	8r	.	8r	.	16ee	.	.
.	.	.	.	.	.	16ffJJ	.	.
=26	=26	=26	=26	=26	=26	=26	=26	=26
2r	.	2r	.	2r	.	16cc'LL)	.	.
.	.	.	.	.	.	(16dd	.	.
.	.	.	.	.	.	16a	.	.
.	.	.	.	.	.	16b-JJ	.	.
.	.	.	.	.	.	16a'LL)	.	.
.	.	.	.	.	.	(16bb-	.	.
.	.	.	.	.	.	16ff	.	.
.	.	.	.	.	.	16ggJJ	.	.
=27	=27	=27	=27	=27	=27	=27	=27	=27
16DLL	.	16FLL 16A	.	[4a	.	8aa)	.	vi
16d	.	16f	.	.	.	.	.	.
16d	.	16f	.	.	.	8r	.	.
16dJJ	.	16fJJ	.	.	.	.	.	.
8d	.	8f	.	16aLL]	.	4r	.	.
.	.	.	.	(16dd	.	.	.	.
8r	.	8r	.	16cc#X	.	.	.	.
.	.	.	.	16ddJJ	.	.	.	.
=28	=28	=28	=28	=28	=28	=28	=28	=28
2r	.	2r	.	16a'LL)	.	2r	.	.
.	.	.	.	(16b-	.	.	.	.
.	.	.	.	16f	.	.	.	.
.	.	.	.	16gJJ	.	.	.	.
.	.	.	.	16f'LL)	.	.	.	.
.	.	.	.	(16g	.	.	.	.
.	.	.	.	16e	.	.	.	.
.	.	.	.	16fJJ	.	.	.	.
=29	=29	=29	=29	=29	=29	=29	=29	=29
16BnLL	.	16dLL	.	16gLL)	.	[4dd	.	V.V
16G	.	16bn	.	16Bn	.	.	.	.
16G	.	16b	.	16B	.	.	.	.
16GJJ	.	16bJJ	.	16BJJ	.	.	.	.
4G	.	4b	.	8B	.	16ddLL]	.	.
.	.	.	.	.	.	(16gg	.	.
.	.	.	.	8r	.	16ff#X	.	.
.	.	.	.	.	.	16ggJJ	.	.
=30	=30	=30	=30	=30	=30	=30	=30	=30
2r	.	16r	.	4r	.	16ff#X'LL)	.	.
.	.	(16gLL	.	.	.	(16gg	.	.
.	.	16d	.	.	.	16dd	.	.
.	.	16eJJ	.	.	.	16eeJJ	.	.
.	.	16d'LL)	.	16r	.	16dd'LL)	.	.
.	.	(16Bn	.	(16eLL	.	(16ee	.	.
.	.	16G	.	16Bn	.	16bn	.	.
.	.	16AJJ	.	16cJJ	.	16ccJJ)	.	.
=31	=31	=31	=31	=31	=31	=31	=31	=31
2g	.	8Bn')	.	8d')	.	(16ddLL	.	V6
.	.	.	.	.	.	16bn	.	.
.	.	8r	.	8r	.	16dd)	.	.
.	.	.	.	.	.	16dd'JJ	.	.
.	.	4r	.	(16bnLL	.	(16ddLL	.	.
.	.	.	.	16g	.	16b	.	.
.	.	.	.	16b)	.	16gg)	.	.
.	.	.	.	16b'JJ	.	32r	.	.
.	.	.	.	.	.	32gg'JJk	.	.
=32	=32	=32	=32	=32	=32	=32	=32	=32
2d	.	2r	.	(16aLL	.	(4gg	.	V(4)/V
.	.	.	.	16d	.	.	.	.
.	.	.	.	16a)	.	.	.	.
.	.	.	.	16a'JJ	.	.	.	.
.	.	.	.	(16aLL	.	4ff#X)	.	V7/V
.	.	.	.	16f#X	.	.	.	.
.	.	.	.	16cc)	.	.	.	.
.	.	.	.	32r	.	.	.	.
.	.	.	.	32cc'JJk	.	.	.	.
=33	=33	=33	=33	=33	=33	=33	=33	=33
2r	.	2G	.	(4cc	.	(16dLL	.	V(4)
.	.	.	.	.	.	16G	.	.
.	.	.	.	.	.	16d)	.	.
.	.	.	.	.	.	16d'JJ	.	.
.	.	.	.	4bn)	.	(16dLL	.	V
.	.	.	.	.	.	16Bn	.	.
.	.	.	.	.	.	16f)	.	V7
.	.	.	.	.	.	32r	.	.
.	.	.	.	.	.	32f'JJk	.	.
=34	=34	=34	=34	=34	=34	=34	=34	=34
(16GGLL	.	[4C	.	2r	.	(4f	.	I(4)
16CC	.	.	.	.	.	.	.	.
16GG)	.	.	.	.	.	.	.	.
16GG'JJ	.	.	.	.	.	.	.	.
(16GGLL	.	16CLL]	.	.	.	[4e)	.	I
16CC	.	(16C	.	.	.	.	.	.
16C)	.	16E)	.	.	.	.	.	.
32r	.	32r	.	.	.	.	.	.
32C'JJk	.	32E'JJk	.	.	.	.	.	.
=35	=35	=35	=35	=35	=35	=35	=35	=35
!LO:TX:a:Bi:t=cresc.	!	!LO:TX:a:Bi:t=cresc.	!	!	!	!LO:TX:a:Bi:t=cresc.	!	!
(4C	.	[2E	.	16r	.	16eLL]	.	.
.	.	.	.	(16cLL	.	(16e	.	.
.	.	.	.	16cc)	.	16ee)	.	.
.	.	.	.	16cc'JJ	.	16ee'JJ	.	.
4GG#X	.	.	.	(16ccLL	.	(16eeLL	.	#VII+/vi
.	.	.	.	16c	.	16e	.	.
.	.	.	.	16cc)	.	16ee)	.	.
.	.	.	.	32r	.	32r	.	.
.	.	.	.	32cc'JJk	.	32ee'JJk	.	.
=36	=36	=36	=36	=36	=36	=36	=36	=36
4GGn	.	16ELL]	.	[4cc#X	.	(8.eeL	.	#viio43/ii
.	.	(16E	.	.	.	.	.	.
.	.	16B-X)	.	.	.	.	.	.
.	.	16B-'JJ	.	.	.	16cc#XJk)	.	.
8FF#XL	.	16A'LL	.	(16cc#LL]	.	(16eeLL	.	II6
.	.	(16A	.	16d	.	16dd	.	.
[8FFnJ)	>]	16d)	>	16dd)	>	16bbn)	>	ii6(6)
.	.	16d'JJ	]]	16dd'JJ	]]	16aa'JJ	]]	ii6
=37	=37	=37	=37	=37	=37	=37	=37	=37
!LO:TX:b:Bi:t=p	!	!	!	!	!	!LO:TX:b:Bi:t=p	!	!
8FFL]	.	16r	.	16r	.	(16ddLL	.	I6(4)
!	!	!LO:TX:b:Bi:t=p	!	!LO:TX:b:Bi:t=p	!	!	!	!
.	.	16G'LL	.	16g'LL	.	16ccn)	.	.
8EE'	.	16g'	.	16ccn'	.	(16aa	.	I6
.	.	16g'JJ	.	16cc'JJ	.	16ggJJ)	.	.
8FF'	.	16r	.	16r	.	(16ccLL	.	V2
.	.	16G'LL	.	16d'LL	.	16bn)	.	.
8GG'J	.	16d'	.	16bn'	.	(16aa	.	V
.	.	16d'JJ	.	16b'JJ	.	16ggJJ)	.	.
=38	=38	=38	=38	=38	=38	=38	=38	=38
!	!	!LO:TX:a:Bi:t=cresc.	!	!	!	!	!	!
!	!	!LO:TX:a:Bi:t=cresc.	!	!	!	!LO:TX:a:Bi:t=cresc.	!	!
4r	.	24cLL	.	8c'L	.	[2gg	.	I\\
.	.	24G	.	.	.	.	.	.
.	.	24AJJ	.	.	.	.	.	.
.	.	24GLL	.	8e'	.	.	.	.
.	.	24E	.	.	.	.	.	.
.	.	24FJJ	.	.	.	.	.	.
8r	.	24ELL	.	8g'	.	.	.	.
.	.	24C	.	.	.	.	.	.
.	.	24DJJ	.	.	.	.	.	.
24eLL	.	8C	.	8cc'J	.	.	.	.
*clefC4	*	*	*	*	*	*	*	*
24d	.	.	.	.	.	.	.	.
24cJJ	.	.	.	.	.	.	.	.
=39	=39	=39	=39	=39	=39	=39	=39	=39
24fLL	.	4r	.	8bn'L	.	2gg]	.	V7
24d	.	.	.	.	.	.	.	.
24BnJJ	.	.	.	.	.	.	.	.
*clefF4	*	*	*	*	*	*	*	*
24GLL	.	.	.	8dd'J	.	.	.	.
24D	.	.	.	.	.	.	.	.
24BBnJJ	.	.	.	.	.	.	.	.
8GG	.	24GLL	.	4ff'	.	.	.	.
.	.	24Bn	.	.	.	.	.	.
.	.	24dJJ	.	.	.	.	.	.
8r	.	24gLL	.	.	.	.	.	.
.	.	24bn	.	.	.	.	.	.
.	.	24ddJJ	.	.	.	.	.	.
=40	=40	=40	=40	=40	=40	=40	=40	=40
!	!	!	!	!LO:TX:a:Bi:t=p	!	!	!	!
!	!	!LO:TX:a:Bi:t=p	!	!LO:TX:b:Bi:t=p cresc.	!	!LO:TX:b:Bi:t=cresc.	!	!
2r	.	8bn	.	24ffLL	.	8gg'L	.	.
.	.	.	.	24dd	.	.	.	.
.	.	.	.	24eeJJ	.	.	.	.
.	.	8r	.	24ddLL	.	8bbn'J	.	.
.	.	.	.	24bn	.	.	.	.
.	.	.	.	24ccJJ	.	.	.	.
.	.	8r	.	24bLL	.	8ddd'L	.	.
.	.	.	.	24g	.	.	.	.
.	.	.	.	24aJJ	.	.	.	.
.	.	24bLL	.	8g	.	8ggg'J	.	.
.	.	24a	.	.	.	.	.	.
.	.	24gJJ	.	.	.	.	.	.
=41	=41	=41	=41	=41	=41	=41	=41	=41
!	!	!LO:TX:b:Bi:t=cresc.	!	!	!	!LO:TX:a:Bi:t=sf	!	!
4r	.	24ccLL	.	4r	.	8eee'L	.	I
.	.	24g	.	.	.	.	.	.
.	.	24eJJ	.	.	.	.	.	.
.	.	24cLL	.	.	.	8ggg'J	.	.
.	.	24G	.	.	.	.	.	.
.	.	24EJJ	.	.	.	.	.	.
24cLL	.	8C	.	24eLL	.	4cccc	.	.
24G	.	.	.	24g	.	.	.	.
24EJJ	.	.	.	24ccJJ	.	.	.	.
24CLL	.	8r	.	24eeLL	.	.	.	.
24GG	.	.	.	24gg	.	.	.	.
24EEJJ	.	.	.	24bbnJJ	.	.	.	.
=42	=42	=42	=42	=42	=42	=42	=42	=42
!LO:TX:a:Bi:t=f	!	!	!	!LO:TX:b:Bi:t=f	!	!	!	!
8CC'L	.	4r	.	24cccLL	.	8r	.	.
.	.	.	.	24gg	.	.	.	.
.	.	.	.	24aaJJ	.	.	.	.
8EE'J	.	.	.	24ggLL	.	8r	.	I6
.	.	.	.	24ee	.	.	.	.
.	.	.	.	24ffJJ	.	.	.	.
8GG'L	.	8C'L	.	24eeLL	.	8r	.	I64
.	.	.	.	24cc	.	.	.	.
.	.	.	.	24ddJJ	.	.	.	.
8C'J	.	8E'J	.	8cc	.	24eeeLL	.	I
.	.	.	.	.	.	24ddd	.	.
.	.	.	.	.	.	24cccJJ	.	.
=43	=43	=43	=43	=43	=43	=43	=43	=43
8BBn'L	.	8G'L	.	4r	.	24fffLL	.	V65
.	.	.	.	.	.	24ddd	.	.
.	.	.	.	.	.	24bbnJJ	.	.
8D'J	.	8Bn'	.	.	.	24ffLL	.	.
.	.	.	.	.	.	24dd	.	.
.	.	.	.	.	.	24bnJJ	.	.
16F'LL	>	8d'	>	24ffLL	>	24gLL	>	V2
.	.	.	.	24dd	.	24b	.	.
16G'	.	.	.	.	.	.	.	.
.	.	.	.	24bnJJ	.	24ddJJ	.	.
16Bn'	.	8f'J	]]	24ddLL	.	24ggLL	.	V65
.	.	.	.	24b	.	24bb	.	.
16d'JJ	]]	.	.	.	.	.	.	.
.	.	.	.	24gJJ	]]	24dddJJ	]]	.
=44	=44	=44	=44	=44	=44	=44	=44	=44
!	!	!LO:TX:a:Bi:t=pp	!	!LO:TX:b:Bi:t=pp	!	!LO:TX:a:Bi:t=pp	!	!
8r	.	24gLL	.	24bnLL	.	24fffLL	.	V7
.	.	24a	.	24cc	.	24ddd	.	.
.	.	24bnJJ	.	24ddJJ	.	24bbnJJ	.	.
!LO:TX:b:Bi:t=pp	!	!	!	!	!	!	!	!
8c	.	24ccLL	.	24eeLL	.	24ggLL	.	I
.	.	24dd	.	24ff	.	24ccc	.	.
.	.	24ccJJ	.	24eeJJ	.	24eeeJJ	.	.
24FLL	.	24ALL	.	4r	.	24eeeLL	.	IVM7
24G	.	24B-X	.	.	.	24ccc	.	.
24AJJ	.	24cJJ	.	.	.	24aaJJ	.	.
24B-XLL	.	24dLL	.	.	.	24ffLL	.	IV/IV
24c	.	24e	.	.	.	24bb-X	.	.
24B-JJ	.	24dJJ	.	.	.	24dddJJ	.	.
=45	=45	=45	=45	=45	=45	=45	=45	=45
!	!	!	!	!	!	!LO:TX:a:Bi:t=cresc.	!	!
8BnL	.	24eLL	.	24g#XLL	.	24dddLL	.	V43/vi
.	.	24e	.	24a	.	24bbn	.	.
.	.	24eJJ	.	24bnJJ	.	24gg#XJJ	.	.
8AJ	.	24eLL	.	24ccLL	.	24eeLL	.	vi
.	.	24e	.	24dd	.	24aa	.	.
.	.	24eJJ	.	24ccJJ	.	24cccJJ	.	.
24DLL	.	24f#XLL	.	24aLL	.	24cccLL	.	V7/V
24E	.	24e	.	24a	.	24aa	.	.
24F#XJJ	.	24dJJ	.	24aJJ	.	24ff#XJJ	.	.
24GLL	.	24dLL	.	24gnLL	.	24bbLL	.	V
24A	.	24d	.	24g	.	24ggn	.	.
24GJJ	.	24dJJ	.	24gJJ	.	24ddJJ	.	.
=46	=46	=46	=46	=46	=46	=46	=46	=46
[2D#X	.	(8cL	<	(8ccL	<	(8cccL	<	i6
.	.	8G	.	8g	.	8gg	.	.
.	.	8c)	[ >	8cc)	[ >	8ccc)	[ >	.
.	.	8A'J	]]	8a'J	]]	8aa'J	]]	#viio7/iii
=47	=47	=47	=47	=47	=47	=47	=47	=47
!LO:TX:b:Bi:t=p	!	!LO:TX:b:Bi:t=p	!	!LO:TX:b:Bi:t=p	!	!LO:TX:b:Bi:t=p	!	!
(8D#L]	.	(4.G	.	(4.g	.	(4.gg	.	iii
8EJ	.	.	.	.	.	.	.	.
8FL)	.	.	.	.	.	.	.	.
8Dn'J	.	16ALL	.	16aLL	.	16aaLL	.	viio6
.	.	16BnJJ)	.	16bnJJ)	.	16bbnJJ)	.	.
=48	=48	=48	=48	=48	=48	=48	=48	=48
!LO:TX:b:i:t=cresc.	!	!LO:TX:b:i:t=cresc.	!	!LO:TX:b:i:t=cresc.	!	!LO:TX:b:i:t=cresc.	!	!
(8CL	.	(8cL	.	(8ccL	.	(8cccL	.	I
8BBnJ	.	8dJ	.	8ddJ	.	8dddJ	.	V6
8C'L)	.	8e'L)	.	8ee'L)	.	8eee'L)	.	I
8AA'J	.	8c'J	.	8ee'J	.	8eee'J	.	vi
=49	=49	=49	=49	=49	=49	=49	=49	=49
(8GG#XL	.	(8BnL	.	(8eeL	.	(8eeeL	.	V6/vi
8EEJ	.	8G#XJ	.	8ddJ	.	8dddJ	.	V7/vi
4FF)	.	8AL	.	8ccL	.	8cccL	.	IV
.	.	8DJ)	.	8aJ)	.	8aaJ)	.	.
=50	=50	=50	=50	=50	=50	=50	=50	=50
!LO:TX:b:Bi:t=pp	!	!LO:TX:b:Bi:t=pp	!	!LO:TX:b:Bi:t=pp	!	!LO:TX:a:Bi:t=pp	!	!
8EEL	.	16DLL	.	16dLL 16bn	.	(16aaLL	.	V7/vi
.	.	16Bn	.	16dd	.	16gg#X)	.	.
*clefC4	*	*	*	*	*	*	*	*
8e'	.	16B	.	16dd	.	16gg#'	.	.
.	.	16bnJJ	.	16ddJJ	.	16aa'JJ	.	.
8f'	.	16bLL	.	16ddLL	.	(16aaLL	.	V2
.	.	16b	.	16dd	.	16ggn)	.	.
8f'J	.	16b	.	16dd	.	16gg'	.	.
.	.	16bJJ	.	16ddJJ	.	16gg'JJ	.	.
=51	=51	=51	=51	=51	=51	=51	=51	=51
8gnL	.	16eLL	.	16ccLL	.	(16ggLL	.	I6
.	.	16e	.	16cc	.	16ee)	.	.
8g	.	16e	.	16cc	.	16ee'	.	.
.	.	16eJJ	.	16ccJJ	.	16ff'JJ	.	.
8a	.	16eLL	.	16ccLL	.	16ff'LL	.	vi(+6)
.	.	16c	.	16cc	.	16ff#X'	.	#viio6/V
8aJ	.	16c	.	16ee	.	16ff#'	.	.
.	.	16ccJJ	.	16eeJJ	.	16ggJJ	.	.
=52	=52	=52	=52	=52	=52	=52	=52	=52
24eLL	.	24ccLL	.	24eeLL	.	(24aaLL	.	V7/vi
24e	.	24bn	.	24ee	.	24gg#X)	.	.
24eJJ	.	24bJJ	.	24ddJJ	.	24gg#'JJ	.	.
24eLL	.	24bLL	.	24ddLL	.	(24gg#LL	.	.
24e	.	24b	.	24dd	.	24aa)	.	.
24eJJ	.	24bJJ	.	24ddJJ	.	24aa'JJ	.	.
24fLL	.	24bLL	.	24ddLL	.	(24aaLL	.	#viio2/vi
24f	.	24b	.	24dd	.	24gg#)	.	.
24fJJ	.	24bJJ	.	24ddJJ	.	24gg#'JJ	.	.
24fLL	.	24bLL	.	24ddLL	.	(24gg#LL	.	.
24f	.	24b	.	24dd	.	24ggn)	.	V2
24fJJ	.	24bJJ	.	24ddJJ	.	24gg'JJ	.	.
=53	=53	=53	=53	=53	=53	=53	=53	=53
!LO:TX:b:i:t=cresc.	!	!LO:TX:b:i:t=cresc.	!	!LO:TX:b:i:t=cresc.	!	!LO:TX:b:i:t=cresc.	!	!
24gLL	.	24eLL	.	24ccLL	.	24ggLL	.	I6
24g	.	24e	.	24cc	.	24ee	.	.
24gJJ	.	24eJJ	.	24ccJJ	.	24ffJJ	.	.
24gLL	.	24BnLL	.	24ddLL	.	24ffLL	.	V6
24g	.	24B	.	24dd	.	24ff#X	.	.
24gJJ	.	24BJJ	.	24ddJJ	.	24ggJJ	.	.
24gLL	.	24cLL	.	24aLL	.	(24ggLL	.	I
24g	.	24c	.	24a	.	24aa	.	.
24gJJ	.	24cJJ	.	24aJJ	.	24ggJJ	.	.
24gLL	.	24dLL	.	24bnLL	.	24ffnLL	.	V43
24g	.	24d	.	24b	.	24ee	.	.
24gJJ	.	24dJJ	.	24bJJ	.	24ddJJ)	.	.
=54	=54	=54	=54	=54	=54	=54	=54	=54
!LO:TX:a:i:t=cresc.	!	!LO:TX:a:i:t=cresc.	!	!LO:TX:a:Bi:t=p	!	!LO:TX:b:i:t=cresc.	!	!
[2g	.	(4C	.	4e	.	(4cc	.	I
.	.	4D)	.	4f	.	24bnLL	.	V43
.	.	.	.	.	.	24aa	.	.
.	.	.	.	.	.	24ggJJ	.	.
.	.	.	.	.	.	24ffLL	.	.
.	.	.	.	.	.	24ee	.	.
.	.	.	.	.	.	24ddJJ)	.	.
=55	=55	=55	=55	=55	=55	=55	=55	=55
!LO:TX:a:Bi:t=p	!	!LO:TX:a:Bi:t=p	!	!LO:TX:a:Bi:t=p	!	!	!	!
4g_	.	8E'L	.	8g'L	.	8cc'L	.	I6
.	.	8F'J	.	8A'J 8d	.	8dd'	.	ii6
24gLL]	.	8G'	.	(24BnLL 24d	.	8g'J	.	V
*clefF4	*	*	*	*	*	*	*	*
24GG	.	.	.	24a	.	.	.	.
24GGJJ	.	.	.	24gJJ	.	.	.	.
24GGLL	.	8r	.	24fLL	.	8r	.	V7
24AA	.	.	.	24e	.	.	.	.
24BBnJJ	.	.	.	24dJJ)	.	.	.	.
=56	=56	=56	=56	=56	=56	=56	=56	=56
*	*	*^	*	*	*	*	*	*
!LO:TX:b:i:t=cresc.	!	!LO:TX:b:i:t=cresc.	!	!	!LO:TX:b:i:t=cresc.	!	!LO:TX:b:i:t=cresc.	!	!
(4C	.	2G	(4E	.	(4e	.	24r	.	I\\
.	.	.	.	.	.	.	(24ggLL	.	.
.	.	.	.	.	.	.	24ffJJ	.	.
.	.	.	.	.	.	.	24eeLL	.	.
.	.	.	.	.	.	.	24dd	.	.
.	.	.	.	.	.	.	24ccJJ	.	.
4D	.	.	4F)	.	[4g)	.	24bnLL	.	V43
.	.	.	.	.	.	.	24aa	.	.
.	.	.	.	.	.	.	24ggJJ	.	.
.	.	.	.	.	.	.	24ffLL	.	.
.	.	.	.	.	.	.	24ee	.	.
.	.	.	.	.	.	.	24ddJJ)	.	.
*	*	*v	*v	*	*	*	*	*	*
=57	=57	=57	=57	=57	=57	=57	=57	=57
8E'L)	.	8G'L	.	(24gLL]	.	8cc'L	.	I6
.	.	.	.	24a	.	.	.	.
.	.	.	.	24gJJ	.	.	.	.
8F'	.	8A'J	.	24fLL	.	8ddd'	.	ii6
.	.	.	.	24e	.	.	.	.
.	.	.	.	24dJJ)	.	.	.	.
8G'	.	(24GLL	.	8e'L	.	8gg'	.	V(64)
.	.	24A	.	.	.	.	.	.
.	.	24GJJ	.	.	.	.	.	.
8GG'J	.	24FLL	.	8dd'J	.	8bbn'J	.	V7
.	.	24E	.	.	.	.	.	.
.	.	24DJJ)	.	.	.	.	.	.
=58	=58	=58	=58	=58	=58	=58	=58	=58
!LO:TX:b:Bi:t=f	!	!	!	!	!	!	!	!
!LO:TX:a:Bi:t=f	!	!	!	!LO:TX:a:Bi:t=f	!	!LO:TX:a:Bi:t=f	!	!
8EE'	.	8E'	.	8g' 8a	.	8ccc#X'	.	V43/ii
8r	.	8r	.	8r	.	8r	.	.
4r	.	8r	.	8r	.	16.r	.	.
.	.	.	.	.	.	(32eeKLL	.	.
.	.	(8g	.	[8a	.	16a	.	V2/ii
.	.	.	.	.	.	16cc#XJJ	.	.
=59	=59	=59	=59	=59	=59	=59	=59	=59
!	!	!	!	!LO:TX:a:Bi:t=p	!	!	!	!
!	!	!LO:TX:a:Bi:t=p	!	!LO:TX:a:Bi:t=p	!	!	!	!
4r	.	8f)	.	8a]	.	8dd)	.	ii6
.	.	8r	.	8r	.	8r	.	.
8r	.	8r	.	16.r	.	8r	.	.
.	.	.	.	(32dKLL	.	.	.	.
(8GG	.	(8D	.	16G	.	(8f	.	V7
.	.	.	.	16BnJJ)	.	.	.	.
=60	=60	=60	=60	=60	=60	=60	=60	=60
!LO:TX:b:Bi:t=p	!	!	!	!	!	!	!	!
8CC)	.	8C)	.	8c	.	8e)	.	I\\
8r	.	8r	.	8r	.	8r	.	.
8r	.	8r	.	8r	.	16.r	.	.
.	.	.	.	.	.	(32eeeKLL	.	.
*clefC4	*	*	*	*	*	*	*	*
[8a	.	(8g	.	(8ee	.	16aa	.	V2/ii
.	.	.	.	.	.	16ccc#XJJ)	.	.
=61	=61	=61	=61	=61	=61	=61	=61	=61
8a]	.	8f)	.	8dd)	.	8ddd	.	ii6
8r	.	8r	.	8r	.	8r	.	.
8r	.	8r	.	16.r	.	8r	.	.
.	.	.	.	(32dKLL	.	.	.	.
*clefF4	*	*	*	*	*	*	*	*
[8GG	.	[8D [8G	.	16G	.	[8Bn	.	V
.	.	.	.	16BnJJ	.	.	.	.
=62	=62	=62	=62	=62	=62	=62	=62	=62
8GG]	.	8D] 8G]	.	8d)	.	8B]	.	.
8r	.	8r	.	8r	.	8r	.	.
(4D	>	4r	.	4r	.	4r	.	@none
=63	=63	=63	=63	=63	=63	=63	=63	=63
4EE)	.	2r	.	2r	.	2r	.	.
(4BBn	] >	.	.	.	.	.	.	.
=64	=64	=64	=64	=64	=64	=64	=64	=64
4AA)	.	2r	.	2r	.	2r	.	.
(4E	] >	.	.	.	.	.	.	.
=65	=65	=65	=65	=65	=65	=65	=65	=65
.	.	(32qqBn/LLL	.	.	.	.	.	.
.	.	32qqc/JJJ	.	.	.	.	.	.
4FF#X)	.	(4d)	.	2r	.	2r	.	V2/V
(4C	] >	8..AL	.	.	.	.	.	.
.	.	32BJkk)	.	.	.	.	.	.
=66	=66	=66	=66	=66	=66	=66	=66	=66
8BBn)	.	8G	.	2r	.	4r	.	V6
8r	]	8r	.	.	.	.	.	.
4r	.	4r	.	.	.	(4gg	.	.
=67	=67	=67	=67	=67	=67	=67	=67	=67
.	.	.	.	(32qqd/LLL	.	.	.	.
.	.	.	.	32qqe/JJJ	.	.	.	.
2r	.	2r	.	(4f)	.	4a)	.	IV
.	.	.	.	8..cL	.	(4ee	.	I
.	.	.	.	32dJkk)	.	.	.	.
=68	=68	=68	=68	=68	=68	=68	=68	=68
!LO:TX:b:Bi:t=p	!	!	!	!	!	!	!	!
24GGLL	.	2r	.	4Bn	.	4dd)	.	V
24BBn	.	.	.	.	.	.	.	.
24DJJ	.	.	.	.	.	.	.	.
24GLL	.	.	.	.	.	.	.	.
24Bn	.	.	.	.	.	.	.	.
24dJJ	.	.	.	.	.	.	.	.
8f	.	.	.	4r	.	(4aa	.	IV
8r	.	.	.	.	.	.	.	.
=69	=69	=69	=69	=69	=69	=69	=69	=69
(32qqEE/LLL	.	.	.	.	.	.	.	.
32qqFF/JJJ	.	.	.	.	.	.	.	.
(4GG)	.	2r	.	2r	.	4bn)	.	V
8..DDL	.	.	.	.	.	4ff	.	V43
32EE-XJkk)	.	.	.	.	.	.	.	.
=70	=70	=70	=70	=70	=70	=70	=70	=70
!	!	!LO:TX:a:Bi:t=p	!	!	!	!	!	!
4CC	.	4r	.	24cLL	.	4ee-X	.	v.i
.	.	.	.	24e-X	.	.	.	.
.	.	.	.	24gJJ	.	.	.	.
.	.	.	.	24ccLL	.	.	.	.
.	.	.	.	24ee-X	.	.	.	.
.	.	.	.	24ggJJ	.	.	.	.
4r	.	(4e-X	.	8ccc	.	4r	.	i6
.	.	.	.	8r	.	.	.	.
=71	=71	=71	=71	=71	=71	=71	=71	=71
.	.	.	.	(32qqb-/LLL	.	.	.	.
.	.	.	.	32qqcc/JJJ	.	.	.	.
2r	.	4F	.	(4dd-X)	.	2r	.	IV64
.	.	4c	.	8..aL	.	.	.	.
.	.	.	.	32b-Jkk)	.	.	.	.
=72	=72	=72	=72	=72	=72	=72	=72	=72
4r	.	4B-)	.	(4g	.	24gLL	.	.bIII.viio6
.	.	.	.	.	.	24b-	.	.
.	.	.	.	.	.	24dd-XJJ	.	.
.	.	.	.	.	.	24ggLL	.	.
.	.	.	.	.	.	24bb-	.	.
.	.	.	.	.	.	24ddd-XJJ	.	.
[4EE-X	.	(4f	.	4dd-X	.	8ddd-	.	V7(9)
.	.	.	.	.	.	8r	.	.
=73	=73	=73	=73	=73	=73	=73	=73	=73
2EE-]	.	4G	.	4e-X	.	(4eee-X	.	V
.	.	4d-X)	.	4b-	.	8..bb-L	.	V7
.	.	.	.	.	.	32cccJkk)	.	.
=74	=74	=74	=74	=74	=74	=74	=74	=74
(32qqC/LLL	.	.	.	.	.	.	.	.
32qqD-X/JJJ	.	.	.	.	.	.	.	.
(4E-X)	.	24CLL	.	4a-X)	.	4aa-X	.	I6
.	.	24E-X	.	.	.	.	.	.
.	.	24A-XJJ	.	.	.	.	.	.
.	.	24cLL	.	.	.	.	.	.
.	.	24e-X	.	.	.	.	.	.
.	.	24a-XJJ	.	.	.	.	.	.
8..BB-L	.	(8..gL	.	(4ee-X	.	4r	.	V64
32CJkk)	.	32a-Jkk)	.	.	.	.	.	.
=75	=75	=75	=75	=75	=75	=75	=75	=75
4D-X	.	4F	.	4f	.	2r	.	I
4AA-X	.	8..CL	.	4cc	.	.	.	.
.	.	32D-XJkk	.	.	.	.	.	.
=76	=76	=76	=76	=76	=76	=76	=76	=76
(4GG	.	(8D-XL	.	4b-	.	24b-LL	.	viio7
.	.	.	.	.	.	24dd-X	.	.
.	.	.	.	.	.	24ffJJ	.	.
.	.	8d-XJ	.	.	.	24bb-LL	.	.
.	.	.	.	.	.	24ddd-X	.	.
.	.	.	.	.	.	24fffJJ	.	.
8..AAnL	.	8..cL	.	4ff	.	8fff	.	V6/ii
.	.	.	.	.	.	16.r	.	.
32BB-Jkk)	.	32d-Jkk)	.	.	.	32r	.	ii
=77	=77	=77	=77	=77	=77	=77	=77	=77
.	.	(32qqB-/LLL	.	.	.	.	.	.
.	.	32qqc/JJJ	.	.	.	.	.	.
(4BB-	.	(4d-X)	.	4g)	.	(4ee-X	.	V43
8..FFL	.	8..A-XL	.	4e-X 4dd-X	.	4bb-)	.	V65
32GGJkk)	.	32B-Jkk)	.	.	.	.	.	.
=78	=78	=78	=78	=78	=78	=78	=78	=78
.	.	(32qqA-X/LLL	.	.	.	(32qqccc/LLL	.	I
!LO:TX:a:Bi:t=cresc.	!	!	!	!	!	!	!	!
!LO:TX:a:Bi:t=cresc.	!	!LO:TX:a:Bi:t=cresc.	!	!	!	!LO:TX:a:Bi:t=cresc.	!	!
.	.	32qqB-/JJJ	.	.	.	32qqddd-X/JJJ	.	.
(4AA-X	.	(4c)	.	24ccLL	.	(4eee-X)	.	.
.	.	.	.	24e-X	.	.	.	.
.	.	.	.	24a-XJJ	.	.	.	.
.	.	.	.	24ccLL	.	.	.	.
.	.	.	.	24ee-X	.	.	.	.
.	.	.	.	24aa-XJJ	.	.	.	.
4GG-X)	.	8..d-XL	.	8ee-	.	8..bb-L	.	iv6/ii
.	.	.	.	16r	.	.	.	.
.	.	.	.	32ccLLL	.	.	.	.
.	.	32e-XJkk)	.	32dd-XJJJ	.	32cccJkk)	.	.
=79	=79	=79	=79	=79	=79	=79	=79	=79
.	.	.	.	(32qqcc/LLL	.	(32qqaa/LLL	.	V7/ii
.	.	.	.	32qqdd-X/JJJ	.	32qqbb-/JJJ	.	.
24FFLL	.	4e-X	.	(4ee-X)	.	(4ccc)	.	.
24AAn	.	.	.	.	.	.	.	.
24CJJ	.	.	.	.	.	.	.	.
24FLL	.	.	.	.	.	.	.	.
24An	.	.	.	.	.	.	.	.
24cJJ	.	.	.	.	.	.	.	.
8f	.	24FLL	.	8..eenL	.	8..b-L 8..gg	.	I.I[viio64
.	.	24An	.	.	.	.	.	.
.	.	24cJJ	.	.	.	.	.	.
8r	.	24fLL	.	.	.	.	.	.
.	.	24an	.	.	.	.	.	.
.	.	24ccJJ	.	.	.	.	.	.
.	.	.	.	32ffJkk)	.	32ccJkk) 32aan	.	I]
=80	=80	=80	=80	=80	=80	=80	=80	=80
!	!	!LO:TX:a:Bi:t=f	!	!	!	!	!	!
!LO:TX:b:Bi:t=f	!	!LO:TX:a:Bi:t=f	!	!LO:TX:a:Bi:t=f	!	!	!	!
16f	.	16cc	.	16a 16ff	.	16cc 16aa	.	I
32r	.	32r	.	32r	.	32r	.	.
(32CKLL	.	(32cKLL	.	(32ccKLL	.	(32cccKLL	.	.
16FF	.	16F	.	16f	.	16ff	.	.
16AAJJ	.	16AJJ	.	16aJJ	.	16aaJJ	.	.
8C')	.	8c')	.	8cc')	.	8ccc')	.	.
8r	.	8r	.	8r	.	8r	.	.
=81	=81	=81	=81	=81	=81	=81	=81	=81
2r	.	4r	.	2r	.	2r	.	.
.	.	16.r	.	.	.	.	.	.
.	.	(32cKLL	.	.	.	.	.	.
.	.	16F	.	.	.	.	.	.
.	.	16AJJ	.	.	.	.	.	.
=82	=82	=82	=82	=82	=82	=82	=82	=82
!LO:TX:a:Bi:t=pizz	!	!	!	!	!	!	!	!
!LO:TX:a:Bi:t=p	!	!	!	!	!	!	!	!
!LO:TX:a:Bi:t=p	!	!	!	!LO:TX:a:Bi:t=p	!	!	!	!
8r	.	8B-')	.	16.r	.	4r	.	IV
.	.	.	.	(32ddnKLL	.	.	.	.
8BB-	.	8r	.	16f	.	.	.	.
.	.	.	.	16b-JJ	.	.	.	.
8AAL	.	4r	.	8cc')	.	16.r	.	I6
.	.	.	.	.	.	(32ee-XKLL	.	V7/IV
8FFJ	.	.	.	8r	.	16f	.	.
.	.	.	.	.	.	16ccJJ)	.	.
=83	=83	=83	=83	=83	=83	=83	=83	=83
!	!	!	!	!LO:TX:a:Bi:t=cresc.	!	!	!	!
!	!	!	!	!LO:TX:a:Bi:t=cresc.	!	!	!	!
!LO:TX:a:Bi:t=cresc.	!	!	!	!LO:TX:a:Bi:t=p	!	!	!	!
8r	.	8r	.	8r	.	(16.ddLL	.	IV
.	.	.	.	.	.	32ee-XJJk)	.	.
8BB-	.	(16.B-LL	.	(16.dLL	.	[8ff	.	.
.	.	32cJJk)	.	32e-XJJk)	.	.	.	.
16r	.	16.dLL	.	16.fLL	.	16.ff]	.	.
32r	.	.	.	.	.	.	.	.
(32GGKLL	.	(32GK	.	(32gK	.	(32ggKLL	.	V
16CC	.	16C	.	16c	.	16cc	.	.
16EEJJ	.	16EJJ	.	16enJJ	.	16eenJJ	.	.
=84	=84	=84	=84	=84	=84	=84	=84	=84
!	!	!	!	!LO:TX:a:Bi:t=p	!	!	!	!
!LO:TX:a:Bi:t=pizz.	!	!	!	!LO:TX:a:Bi:t=f	!	!	!	!
!LO:TX:b:Bi:t=p	!	!LO:TX:a:Bi:t=f	!	!LO:TX:a:Bi:t=f	!	!	!	!
8GG')	.	8G')	.	8g')	.	8gg')	.	.
8r	.	8r	.	8r	.	8r	.	.
8r	.	4r	.	4r	.	16.r	.	.
.	.	.	.	.	.	(32gKLL	.	.
8B-	.	.	.	.	.	16c	.	V2
.	.	.	.	.	.	16eJJ)	.	.
=85	=85	=85	=85	=85	=85	=85	=85	=85
!	!	!LO:TX:a:Bi:t=p	!	!	!	!	!	!
!	!	!LO:TX:a:Bi:t=p	!	!	!	!	!	!
8AL	.	8r	.	8r	.	16f	.	I6
.	.	.	.	.	.	32r	.	.
.	.	.	.	.	.	(32aKLL	.	.
8F	.	8A'L	.	8c'L	.	16c	.	I
.	.	.	.	.	.	16fJJ)	.	.
8E	.	8G'	.	8c'	.	16g	.	V6
.	.	.	.	.	.	32r	.	.
.	.	.	.	.	.	(32b-KLL	.	V7
8CJ	.	8E'J	.	8G'J	.	16c	.	.
.	.	.	.	.	.	16gJJ)	.	.
=86	=86	=86	=86	=86	=86	=86	=86	=86
!LO:TX:a:Bi:t=arco	!	!	!	!	!	!	!	!
8r	.	8r	.	8r	.	(16.aLL	.	I
.	.	.	.	.	.	32b-JJk)	.	.
4.F	.	(16.ALL	.	4.a	.	4cc	.	.
.	.	32B-JJk)	.	.	.	.	.	.
.	.	4c	.	.	.	.	.	.
.	.	.	.	.	.	8r	.	.
=87	=87	=87	=87	=87	=87	=87	=87	=87
!LO:TX:a:Bi:t=poco	!	!LO:TX:a:Bi:t=poco	!	!LO:TX:a:Bi:t=poco	!	!LO:TX:a:Bi:t=poco	!	!
8r	.	8r	.	8r	.	(16.aLL	.	.
.	.	.	.	.	.	32bnJJk)	.	.
4.f	.	4.a	.	(16.aaLL	.	4cc	.	.
.	.	.	.	32bbnJJk)	.	.	.	.
.	.	.	.	4ccc	.	.	.	.
.	.	.	.	.	.	8r	.	.
=88	=88	=88	=88	=88	=88	=88	=88	=88
8r	.	8r	.	4r	.	(16.aLL	.	.
.	.	.	.	.	.	32bnJK)	.	.
[8FL	.	(16.ALL	.	.	.	8ccJ	.	.
.	.	32BnJJk)	.	.	.	.	.	.
8F]	.	4c	.	(16.aaLL	.	(16.ccLL	.	.
.	.	.	.	32bbnJJk)	.	32ddJK)	.	.
8EJ	.	.	.	(16.ccLL	.	8eeJ	.	iii64
.	.	.	.	32ddJJk)	.	.	.	.
=89	=89	=89	=89	=89	=89	=89	=89	=89
!LO:TX:a:Bi:t=p	!	!LO:TX:a:Bi:t=p	!	!	!	!	!	!
!LO:TX:a:Bi:t=p	!	!LO:TX:a:Bi:t=do	!	!	!	!LO:TX:a:Bi:t=p	!	!
!LO:TX:a:Bi:t=do	!	!LO:TX:a:Bi:t=do	!	!	!	!LO:TX:a:Bi:t=a tempo	!	!
4r	.	8E'L	.	8a 8ee	.	24ccLL	.	.
.	.	.	.	.	.	24dd	.	.
.	.	.	.	.	.	24eeJJ	.	.
.	.	8A'	.	8r	.	24eeLL	.	iii
.	.	.	.	.	.	24ee	.	.
.	.	.	.	.	.	24eeJJ	.	.
(32qqCC/LLL	.	.	.	.	.	.	.	.
32qqDD/JJJ	.	.	.	.	.	.	.	.
8EE')	.	8E'	.	8G#X	.	24ddLL	.	V7/iii
.	.	.	.	.	.	24cc	.	.
.	.	.	.	.	.	24bnJJ	.	.
8r	.	8G#X'J	.	8r	.	24bLL	.	.
.	.	.	.	.	.	24b	.	.
.	.	.	.	.	.	24bJJ	.	.
=90	=90	=90	=90	=90	=90	=90	=90	=90
8AA'L	.	8E'L	.	4r	.	24ccLL	.	iii
.	.	.	.	.	.	24bn	.	.
.	.	.	.	.	.	24aJJ	.	.
8EE'	.	8G#X'	.	.	.	24bLL	.	V/iii
.	.	.	.	.	.	24a	.	.
.	.	.	.	.	.	24g#XJJ	.	.
.	.	.	.	(32qqc#X/LLL	.	.	.	.
.	.	.	.	32qqd/JJJ	.	.	.	.
8AA'J	.	8E'	.	8e)	.	24aLL	.	V7/vi
.	.	.	.	.	.	24cc#X	.	.
.	.	.	.	.	.	24ddJJ	.	.
8r	.	8c#X'J	.	8r	.	24eeLL	.	.
.	.	.	.	.	.	24ff	.	.
.	.	.	.	.	.	24ggJJ	.	.
=91	=91	=91	=91	=91	=91	=91	=91	=91
!LO:TX:a:Bi:t=p	!	!	!	!LO:TX:a:Bi:t=p	!	!LO:TX:a:Bi:t=p	!	!
!LO:TX:a:Bi:t=sempre	!	!	!	!LO:TX:b:Bi:t=sempre	!	!LO:TX:b:Bi:t=sempre	!	!
2r	.	8d'L	.	24fLL	.	8ff'L	.	vi
.	.	.	.	24g	.	.	.	.
.	.	.	.	24aJJ	.	.	.	.
.	.	(32qqd/LLL	.	.	.	.	.	.
.	.	32qqe/JJJ	.	.	.	.	.	.
.	.	8f'J)	.	24aLL	.	8ddd'	.	vi6
.	.	.	.	24a	.	.	.	.
.	.	.	.	24aJJ	.	.	.	.
.	.	8e'L	.	24gLL	.	8aa'	.	V43/vi
.	.	.	.	24f	.	.	.	.
.	.	.	.	24eJJ	.	.	.	.
.	.	(32qqe/LLL	.	.	.	.	.	.
.	.	32qqg/JJJ	.	.	.	.	.	.
.	.	8a'J)	.	24eLL	.	8ccc#X'J	.	.
.	.	.	.	24e	.	.	.	.
.	.	.	.	24eJJ	.	.	.	.
=92	=92	=92	=92	=92	=92	=92	=92	=92
!	!	!	!	!	!	!LO:TX:a:Bi:t=dan -	!	!
4r	.	24aLL	.	24fLL	.	8ddd'L	.	vi6
.	.	24g	.	24e	.	.	.	.
.	.	24fJJ	.	24dJJ	.	.	.	.
.	.	24gLL	.	24eLL	.	8aa'	.	V43/vi
.	.	24f	.	24d	.	.	.	.
.	.	24eJJ	.	24c#XJJ	.	.	.	.
(32qqDD/LLL	.	.	.	.	.	.	.	.
32qqEE/JJJ	.	.	.	.	.	.	.	.
8FF#X')	.	24f#XLL	.	24dLL	.	8ddd'J	.	V6/ii
.	.	24g	.	24e	.	.	.	.
.	.	24aJJ	.	24f#XJJ	.	.	.	.
8r	.	24aLL	.	24f#LL	.	8r	.	.
.	.	24g	.	24e	.	.	.	.
.	.	24f#JJ	.	24dJJ	.	.	.	.
=93||	=93||	=93||	=93||	=93||	=93||	=93||	=93||	=93||
*k[f#]	*	*k[f#]	*	*k[f#]	*	*k[f#]	*	*
*G:	*	*G:	*	*G:	*	*G:	*	*
!LO:TX:b:Bi:t=p	!	!	!	!	!	!	!	!
8DD'L	.	24bnLL	.	8d'L	.	8r	.	II.I64
.	.	24cc	.	.	.	.	.	.
.	.	24ddJJ	.	.	.	.	.	.
.	.	.	.	.	.	(32qqbb/LLL	.	I
.	.	.	.	.	.	32qqccc/JJJ	.	.
8GG'	.	24ddLL	.	8Bn'	.	8ddd')	.	.
.	.	24dd	.	.	.	.	.	.
.	.	24ddJJ	.	.	.	.	.	.
8DD'	.	24ccLL	.	8f#'	.	8r	.	V7
.	.	24b	.	.	.	.	.	.
.	.	24aJJ	.	.	.	.	.	.
.	.	.	.	.	.	(32qqaa/LLL	.	V65
.	.	.	.	.	.	32qqccc/JJJ	.	.
8FF#'J	.	24aLL	.	8A'J 8d	.	8ddd')	.	.
.	.	24a	.	.	.	.	.	.
.	.	24aJJ	.	.	.	.	.	.
=94	=94	=94	=94	=94	=94	=94	=94	=94
8GG'L	.	24bLL	.	8B'L 8d	.	8r	.	I
.	.	24a	.	.	.	.	.	.
.	.	24gJJ	.	.	.	.	.	.
.	.	.	.	.	.	(32qqdd/LLL	.	V7
.	.	.	.	.	.	32qqccc/JJJ	.	.
8DD'	.	24aLL	.	8c'J 8d	.	8ddd')	.	.
.	.	24g	.	.	.	.	.	.
.	.	24f#JJ	.	.	.	.	.	.
8GG'J	.	8g	.	24bLL	.	8r	.	I
.	.	.	.	24a	.	.	.	.
.	.	.	.	24gJJ	.	.	.	.
.	.	.	.	.	.	(32qqdd/LLL	.	.
.	.	.	.	.	.	32qqbb/JJJ	.	.
8r	.	8r	.	24gLL	.	8ddd')	.	.
.	.	.	.	24a	.	.	.	.
.	.	.	.	24bJJ	.	.	.	.
=95	=95	=95	=95	=95	=95	=95	=95	=95
8GG'L	.	24GLL	.	24ddLL	.	24bbLL	.	.
.	.	24A	.	24cc	.	24aa	.	.
.	.	24BJJ	.	24bJJ	.	24ggJJ	.	.
8DD'	.	24ALL	.	24aLL	.	24ff#LL	.	V7
.	.	24B	.	24b	.	24gg	.	.
.	.	24cJJ	.	24ccJJ	.	24aaJJ	.	.
8GG'J	.	24BLL	.	24bLL	.	24ggLL	.	I
.	.	24c	.	24a	.	24aa	.	.
.	.	24dJJ	.	24gJJ	.	24bbJJ	.	.
(32qqe/LLL	.	.	.	.	.	.	.	.
32qqf#/JJJ	.	.	.	.	.	.	.	.
8g')	.	24BLL	.	24gLL	.	24bbLL	.	.
.	.	24c	.	24f#	.	24aa	.	.
.	.	24BJJ	.	24gJJ	.	24ggJJ	.	.
=96	=96	=96	=96	=96	=96	=96	=96	=96
8GG'L	.	24gLL	.	24bLL	.	24dddLL	.	I
.	.	24a	.	24cc	.	24ccc	.	.
.	.	24bJJ	.	24ddJJ	.	24bbJJ	.	.
8DD'	.	24ccLL	.	24eeLL	.	24aaLL	.	V7
.	.	24b	.	24dd	.	24bb	.	.
.	.	24aJJ	.	24ff#JJ	.	24cccJJ	.	.
8GG'J	.	24gLL	.	24ggLL	.	24bbLL	.	I
.	.	24e-X	.	24a	.	24ccc	.	.
.	.	24dJJ	.	24bJJ	.	24dddJJ	.	.
(32qqe/LLL	.	.	.	.	.	.	.	.
32qqf#/JJJ	.	.	.	.	.	.	.	.
8g')	.	24BLL	.	24bLL	.	24dddLL	.	.
.	.	24c	.	24a	.	24ccc	.	.
.	.	24dJJ	.	24gJJ	.	24bbJJ	.	.
=97	=97	=97	=97	=97	=97	=97	=97	=97
8C'L	.	24ELL	.	24eeLL	.	24gLL	.	V.I
.	.	24Fn	.	24dd	.	24d	.	.
.	.	24GJJ	.	24ccJJ	.	24eJJ	.	.
8GG'	.	24A-XLL	.	24bLL	.	24fnLL	.	V7(b9)
.	.	24G	.	24cc	.	24e	.	.
.	.	24FJJ	.	24ddJJ	.	24dJJ	.	.
8C'J	.	24GLL	.	24ccLL	.	24eLL	.	I
.	.	24F	.	24dd	.	24d	.	.
.	.	24EJJ	.	24eeJJ	.	24cJJ	.	.
(32qqA/LLL	.	.	.	.	.	.	.	.
32qqB/JJJ	.	.	.	.	.	.	.	.
8c')	.	24ELL	.	24eeLL	.	24cLL	.	.
.	.	24F	.	24dd	.	24d	.	.
.	.	24GJJ	.	24ccJJ	.	24eJJ	.	.
=98	=98	=98	=98	=98	=98	=98	=98	=98
24cLL	.	8ccL	.	24eLL	.	24ggLL	.	I[I
24c	.	.	.	24d	.	24ffn	.	.
24cJJ	.	.	.	24cJJ	.	24eeJJ	.	.
24cLL	.	8g	.	24BLL	.	24ddLL	.	V7
24c	.	.	.	24c	.	24ee	.	.
24cJJ	.	.	.	24dJJ	.	24ffJJ	.	.
24cLL	.	8ccJ	.	24cLL	.	24eeLL	.	I
24c	.	.	.	24d	.	24ff	.	.
24cJJ	.	.	.	24eJJ	.	24ggJJ	.	.
.	.	(32qqcc/LLL	.	.	.	.	.	.
.	.	32qqdd/JJJ	.	.	.	.	.	.
24cLL	.	8ee')	.	24eLL	.	24ggLL	.	I6
24c	.	.	.	24d	.	24ff	.	.
24cJJ	.	.	.	24cJJ	.	24eeJJ	.	.
=99	=99	=99	=99	=99	=99	=99	=99	=99
!	!	!LO:TX:b:Bi:t=cresc.	!	!	!	!	!	!
!LO:TX:b:Bi:t=cresc.	!	!LO:TX:a:Bi:t=cresc.	!	!	!	!LO:TX:b:Bi:t=cresc.	!	!
8c'L	.	24eLL	.	24ccLL	.	24eeeLL	.	I]
.	.	24fn	.	24dd	.	24ddd	.	.
.	.	24gJJ	.	24eeJJ	.	24cccJJ	.	.
8G'	.	24a-XLL	.	24ffnLL	.	24bbLL	.	V7(b9)
.	.	24g	.	24ee	.	24ccc	.	.
.	.	24fJJ	.	24ddJJ	.	24dddJJ	.	.
8c'J	.	24gLL	.	24eeLL	.	24cccLL	.	I
.	.	24f	.	24dd	.	24ddd	.	.
.	.	24eJJ	.	24ccJJ	.	24eeeJJ	.	.
(32qqAA/LLL	.	.	.	.	.	.	.	.
32qqBB/JJJ	.	.	.	.	.	.	.	.
8C')	.	24eLL	.	24ccLL	.	24eeeLL	.	.
.	.	24f	.	24dd	.	24ddd	.	.
.	.	24gJJ	.	24eeJJ	.	24cccJJ	.	.
=100	=100	=100	=100	=100	=100	=100	=100	=100
24CLL	.	24GLL	.	24eLL	.	24gggLL	.	.
24C	.	24G	.	24d	.	24fffn	.	.
24CJJ	.	24GJJ	.	24cJJ	.	24eeeJJ	.	.
24GGLL	.	24FnLL	.	24a-XLL	.	24dddLL	.	V7(b9)
24GG	.	24E	.	24g	.	24eee	.	.
24GGJJ	.	24DJJ	.	24fnJJ	.	24fffJJ	.	.
24CLL	.	24ELL	.	24gLL	.	24eeeLL	.	I
24CC	.	24D	.	24f	.	24fff	.	.
24CCJJ	.	24CJJ	.	24eJJ	.	24gggJJ	.	.
24DD-XLL	.	24B-XLL	.	24eeLL	.	24gggLL	.	i.iv6
24DD-	.	24B-	.	24ffn	.	24aaa	.	.
24DD-JJ	.	24B-JJ	.	24ggJJ	.	24bbb-XJJ	.	.
=101	=101	=101	=101	=101	=101	=101	=101	=101
*k[b-]	*	*k[b-]	*	*k[b-]	*	*k[b-]	*	*
*F:	*	*F:	*	*F:	*	*F:	*	*
.	.	(32qqG/LLL	.	.	.	.	.	.
!	!	!LO:TX:a:Bi:t=sf	!	!	!	!LO:TX:b:Bi:t=sf	!	!
!LO:TX:a:Bi:t=f	!	!LO:TX:a:Bi:t=f	!	!LO:TX:a:Bi:t=f	!	!LO:TX:a:Bi:t=f	!	!
.	.	32qqA/JJJ	.	.	.	.	.	.
24DD-XLL	.	4B-)	.	24ggLL	.	8bbb-	.	.
24DD-	.	.	.	24aa	.	.	.	.
24DD-JJ	.	.	.	24bb-JJ	.	.	.	.
24DD-LL	.	.	.	24bb-LL	.	8r	.	.
24DD-	.	.	.	24bb-	.	.	.	.
24DD-JJ	.	.	.	24bb-JJ	.	.	.	.
24DD-LL	.	(8..FL	.	[4b-	.	[4bb-	.	.
24DD-	.	.	.	.	.	.	.	.
24DD-JJ	.	.	.	.	.	.	.	.
24DD-LL	.	.	.	.	.	.	.	.
24DD-	.	.	.	.	.	.	.	.
24DD-JJ	.	.	.	.	.	.	.	.
.	.	32GJkk	.	.	.	.	.	.
=102	=102	=102	=102	=102	=102	=102	=102	=102
24DD-XLL	.	8E)	.	(8b-L]	.	(8bb-L]	.	.
24DD-	.	.	.	.	.	.	.	.
24DD-JJ	.	.	.	.	.	.	.	.
24DD-LL	.	8r	.	16.fL	.	16.ffL	.	.
24DD-	.	.	.	.	.	.	.	.
24DD-JJ	.	.	.	.	.	.	.	.
.	.	.	.	32gJJk	.	32ggJJk	.	.
16CCLL	.	16.r	.	16eLL)	.	8ee)	.	V7
32r	.	.	.	32r	.	.	.	.
(32BB-K	.	(32B-KLL	.	(32b-K	.	.	.	.
16FF	.	16F	.	16f	.	8r	.	.
16GGJJ	.	16GJJ	.	16gJJ	.	.	.	.
=103	=103	=103	=103	=103	=103	=103	=103	=103
8EE)	.	8E)	.	8e)	.	4r	.	.
8r	.	8r	.	8r	.	.	.	.
8r	.	16.r	.	4r	.	16.r	.	.
.	.	(32GKLL	.	.	.	(32gKLL	.	V2
!LO:TX:a:t=pizz.	!	!	!	!	!	!	!	!
8BB-	.	16C	.	.	.	16c	.	.
.	.	16EJJ	.	.	.	16eJJ	.	.
=104	=104	=104	=104	=104	=104	=104	=104	=104
!	!	!LO:TX:a:Bi:t=p	!	!	!	!	!	!
!	!	!LO:TX:a:Bi:t=p	!	!	!	!LO:TX:a:Bi:t=p	!	!
8AAL	.	16F'LL)	.	16.r	.	16f'LL)	.	I.I6
.	.	32r	.	.	.	32r	.	.
.	.	(32AK	.	(32aaKLL	.	(32aK	.	.
8FF	.	16C	.	16cc	.	16c	.	I
.	.	16FJJ	.	16ffJJ	.	16fJJ	.	.
8EE	.	16G'LL)	.	8gg')	.	16g'LL)	.	viio
.	.	32r	.	.	.	32r	.	.
.	.	(32B-K	.	.	.	(32b-K	.	.
8CCJ	.	16C	.	8r	.	16c	.	V
.	.	16GJJ)	.	.	.	16gJJ)	.	.
=105	=105	=105	=105	=105	=105	=105	=105	=105
!LO:TX:a:t=arco	!	!LO:TX:a:Bi:t=cresc.	!	!LO:TX:a:Bi:t=cresc.	!	!LO:TX:a:Bi:t=cresc.	!	!
8r	.	(16.ALL	.	8r	.	(16.aLL	.	I
.	.	32B-JJk)	.	.	.	32b-JJk)	.	.
(16.FLL	.	[8c	.	16.aaLL	.	[8cc	.	.
32GJK)	.	.	.	32bb-JJk	.	.	.	.
8A'J	.	16cLL]	.	8ccc	.	16ccLL]	.	.
!	!	!LO:TX:b:Bi:t=p	!	!	!	!LO:TX:b:Bi:t=p	!	!
.	.	(16f	.	.	.	(16ff	.	.
!LO:TX:a:Bi:t=p	!	!	!	!	!	!	!	!
!LO:TX:a:t=pizz.	!	!	!	!	!	!	!	!
8BB-	.	16e	.	8r	.	16ee	.	IV
.	.	16dJJ	.	.	.	16ddJJ	.	.
=106	=106	=106	=106	=106	=106	=106	=106	=106
!LO:TX:a:t=arco	!	!	!	!	!	!	!	!
8r	.	16c')	.	2r	.	16cc')	.	I-V
.	.	(16dLL	.	.	.	(16ddLL	.	ii6
8BB-L	.	16B-	.	.	.	16b-	.	.
.	.	16GJJ	.	.	.	16gJJ	.	.
8C	.	16F')	.	.	.	16f')	.	V(4)
.	.	(16GLL	.	.	.	(16gLL	.	.
8CCJ	.	16E	.	.	.	16e	.	V
.	.	16CJJ)	.	.	.	16cJJ)	.	.
=107	=107	=107	=107	=107	=107	=107	=107	=107
!LO:TX:a:Bi:t=cresc.	!	!LO:TX:a:Bi:t=cresc.	!	!LO:TX:a:Bi:t=cresc.	!	!LO:TX:a:Bi:t=cresc.	!	!
8r	.	(16.ALL	.	8r	.	(16.aLL	.	I\\
.	.	32B-JK)	.	.	.	32b-JJk)	.	.
!LO:TX:a:t=arco	!	!	!	!	!	!	!	!
(16.fLL	.	[8cJ	.	(16.aLL	.	4cc	.	I
32gJJk	.	.	.	32b-JJk	.	.	.	.
8aL)	.	16cLL]	.	16ccLL)	.	.	.	.
.	.	32r	.	32r	.	.	.	.
.	.	(32fK	.	(32ffK	.	.	.	.
!LO:TX:a:t=pizz.	!	!	!	!	!	!	!	!
8B-J	.	16e	.	16ee	.	8r	.	IV
.	.	16dJJ	.	16ddJJ	.	.	.	.
=108	=108	=108	=108	=108	=108	=108	=108	=108
!LO:TX:a:Bi:t=p	!	!	!	!	!	!	!	!
!LO:TX:a:Bi:t=p	!	!LO:TX:a:Bi:t=p	!	!	!	!LO:TX:a:Bi:t=p	!	!
16.r	.	16cLL)	.	16cc)	.	16.r	.	I-V
.	.	32r	.	32r	.	.	.	.
!LO:TX:a:t=arco	!	!	!	!	!	!	!	!
32GGKLL	.	(32DK	.	(32ddKLL	.	(32dddKLL	.	ii
(16GG	.	16B-	.	16b-	.	16bb-	.	.
16BB-JJ	.	16dJJ	.	16gJJ	.	16ggJJ	.	.
16C)	.	16A)	.	16f)	.	16ff')	.	V(64)
32r	.	32r	.	32r	.	32r	.	.
(32CCKLL	.	(32EKLL	.	(32b-KLL	.	(32ggKLL	.	V7
16EE	.	16G	.	16g	.	16ee	.	.
16GGJJ	.	16eJJ	.	16B-JJ	.	16ccJJ	.	.
=109	=109	=109	=109	=109	=109	=109	=109	=109
8FF)	.	8A) 8f	.	8A)	.	8ff)	.	I\\
8r	.	8r	.	8r	.	8r	.	.
(8BBnL	.	(8BnL	.	(8BnL	.	(8bnL	.	V/V
8CJ	.	8cJ	.	8cJ	.	8ccJ	.	V
=110	=110	=110	=110	=110	=110	=110	=110	=110
8CC#XL	.	8C#XL	.	8c#XL	.	8c#XL	.	@none
8DD	.	8D	.	8d	.	8d	.	.
8AA	.	8A	.	8A	.	8a	.	.
8BB-XJ	.	8B-XJ	.	8B-XJ	.	8b-XJ	.	.
=111	=111	=111	=111	=111	=111	=111	=111	=111
8AAL	.	8AL	.	8AL	.	8aL	.	.
8GG	.	8G	.	8G	.	8g	.	.
8C#X	.	8c#X	.	8c#X	.	8cc#X	.	.
8DJ	.	8dJ	.	8dJ	.	8ddJ	.	.
=112	=112	=112	=112	=112	=112	=112	=112	=112
8DD#XL	.	8D#XL	.	8d#XL	.	8d#XL	.	.
8EE	.	8E	.	8e	.	8e	.	.
8C	.	8c	.	8c	.	8cc	.	.
8BB-J)	.	8B-J)	.	8B-J)	.	8b-J)	.	.
=113	=113	=113	=113	=113	=113	=113	=113	=113
(8BB-L	.	(8B-L	.	(8B-L	.	(8b-L	.	.
8AAJ)	.	8A)	.	8AJ)	.	8aJ)	.	.
4r	.	(8e	.	4r	.	4r	.	.
.	.	8fJ	.	.	.	.	.	.
=114	=114	=114	=114	=114	=114	=114	=114	=114
.	.	.	.	(32qqcc/LLL	.	.	.	.
.	.	.	.	32qqdd/JJJ	.	.	.	.
2r	.	8F#XL	.	(4ee-X)	.	2r	.	VI
.	.	8GJ	.	.	.	.	.	.
.	.	8dL	.	8..b-L	.	.	.	.
.	.	8e-XJ	.	.	.	.	.	.
.	.	.	.	32ccJkk)	.	.	.	.
=115	=115	=115	=115	=115	=115	=115	=115	=115
2r	.	8dL	.	8a	.	8r	.	V
.	.	8cJ)	.	8r	.	8r	.	V2
.	.	4r	.	(8f#XL	.	(8ff#XL	.	.
.	.	.	.	8gJ	.	8ggJ	.	i
=116	=116	=116	=116	=116	=116	=116	=116	=116
32qqD/LLL	.	.	.	.	.	.	.	.
32qqE-X/JJJ	.	.	.	.	.	.	.	.
(4F	.	2r	.	8G#XL	.	8g#XL	.	VII
.	.	.	.	8AJ	.	8a	.	.
8..CL	.	.	.	8fnL	.	8ffn	.	V43/III
.	.	.	.	8e-XJ)	.	8ee-XJ)	.	.
32DJkk)	.	.	.	.	.	.	.	.
=117	=117	=117	=117	=117	=117	=117	=117	=117
4BB-	.	4r	.	(8e-XL	.	(8ee-XL	.	III(b4)
.	.	.	.	8dJ)	.	8ddJ)	.	III
(8FFL	.	(8FL	.	(8fL	.	(8ffL	.	@none
8EE-XJ)	.	8E-XJ)	.	8e-J)	.	8ee-J)	.	.
=118	=118	=118	=118	=118	=118	=118	=118	=118
!LO:TX:a:Bi:t=cresc.	!	!LO:TX:a:Bi:t=cresc.	!	!	!	!LO:TX:b:Bi:t=cresc.	!	!
(8EE-XL	.	(8E-XL	.	(8e-XL	.	(8ee-XL	.	.
8DD	.	8D	.	8d	.	8dd	.	.
8C	.	8c	.	8cc	.	8ccc	.	.
8BB-J	.	8B-J	.	8b-J	.	8bb-J	.	.
=119	=119	=119	=119	=119	=119	=119	=119	=119
8DDL	.	8F#XL	.	8aL	.	8aaL	.	V
8EE-XJ)	.	8GJ)	.	8gJ)	.	[8ggJ)	.	VI
(8EE-L	.	(8GL	.	(8B-L	.	(24ggLL]	.	.
.	.	.	.	.	.	24ff	.	.
.	.	.	.	.	.	24ee-XJJ	.	.
8FFJ)	.	8E-XJ)	.	8AJ)	.	24ddLL	.	V7/III
.	.	.	.	.	.	24cc	.	.
.	.	.	.	.	.	24ee-JJ)	.	.
=120	=120	=120	=120	=120	=120	=120	=120	=120
8FF'L	.	8C'L	.	8e-X'L	.	(24b-LL	.	.
.	.	.	.	.	.	24a	.	.
.	.	.	.	.	.	24ccJJ	.	.
8FF'	.	8c'	.	8e-'	.	24fLL	.	.
.	.	.	.	.	.	24a	.	.
.	.	.	.	.	.	24b-JJ	.	.
8FF'	.	8c'	.	8e-'	.	24ccLL	.	.
.	.	.	.	.	.	24dd	.	.
.	.	.	.	.	.	24ee-XJJ	.	.
8FF'J	.	8c'J	.	8e-'J	.	24ffLL	.	.
.	.	.	.	.	.	24gg	.	.
.	.	.	.	.	.	24aaJJ)	.	.
=121	=121	=121	=121	=121	=121	=121	=121	=121
!	!	!LO:TX:a:Bi:t=f	!	!	!	!LO:TX:a:Bi:t=p	!	!
!LO:TX:a:Bi:t=f	!	!LO:TX:a:Bi:t=f	!	!	!	!LO:TX:b:Bi:t=f	!	!
8GG	.	8B-	.	8G 8en	.	8bb-'L	.	I.viio6
8r	.	8r	.	8r	.	(16.aaL	.	.
.	.	.	.	.	.	32cccJJk)	.	.
[4CC	.	[4E	.	8r	.	8bb-'L	.	V[viio
.	.	.	.	[8G	.	8bb-'J	.	.
=122	=122	=122	=122	=122	=122	=122	=122	=122
!LO:TX:a:Bi:t=p	!	!LO:TX:a:Bi:t=p	!	!	!	!	!	!
2CC_	.	8EL]	.	8GL]	.	[2bb-	.	.
.	.	(16.D#XL	.	(16.f#XL	.	.	.	.
.	.	32FJJk)	.	32aJJk)	.	.	.	.
.	.	8E'L	.	8g'L	.	.	.	.
.	.	8E'J	.	8g'J	.	.	.	.
=123	=123	=123	=123	=123	=123	=123	=123	=123
!	!	!	!	!	!	!LO:TX:b:Bi:t=cresc.	!	!
2CC_	.	8EL	.	8gL	.	8bb-L]	.	.
.	.	(16.GL	.	(16.eL	.	(16.ggL	.	.
.	.	32EJJk)	.	32gJJk)	.	32bb-JJk)	.	.
.	.	8F'L	.	8f'L	.	8aa'L	.	I
.	.	8F'J	.	8c'J	.	8aa-X'J	.	i
=124	=124	=124	=124	=124	=124	=124	=124	=124
*	*	*^	*	*	*	*	*	*
8CCL]	.	(4F	2G	.	(4Bn	.	(4dd	.	V2/V
(16.BBnL	.	.	.	.	.	.	.	.	.
32DJJk)	.	.	.	.	.	.	.	.	.
8C'L	.	4E)	.	.	4B-X)	.	4gg)	.	viio]
8C'J	.	.	.	.	.	.	.	.	.
=125	=125	=125	=125	=125	=125	=125	=125	=125	=125
16FLL	.	16FLL	2r	.	16ALL	.	[4cc	.	I
16F	.	16c	.	.	16a	.	.	.	.
16F	.	16c	.	.	16a	.	.	.	.
16FJJ	.	16cJJ	.	.	16aJJ	.	.	.	.
8F	.	8f	.	.	8a	.	16ccLL]	.	.
.	.	.	.	.	.	.	(16ff	.	.
8r	.	8r	.	.	8r	.	16ee	.	.
.	.	.	.	.	.	.	16ffJJ	.	.
*	*	*v	*v	*	*	*	*	*	*
=126	=126	=126	=126	=126	=126	=126	=126	=126
2r	.	2r	.	4r	.	16cc'LL)	.	.
.	.	.	.	.	.	(16dd	.	.
.	.	.	.	.	.	16a	.	.
.	.	.	.	.	.	16b-JJ	.	.
.	.	.	.	16r	.	16a'LL)	.	.
.	.	.	.	(16bb-LL	.	(16b-	.	.
.	.	.	.	16ff	.	16f	.	.
.	.	.	.	16ggJJ)	.	16gJJ)	.	.
=127	=127	=127	=127	=127	=127	=127	=127	=127
16DLL	.	16FLL	.	[4aa	.	16aLL	.	vi
16d	.	16f	.	.	.	16a	.	.
16d	.	16f	.	.	.	16a	.	.
16dJJ	.	16fJJ	.	.	.	16aJJ	.	.
8d	.	8f	.	16aaLL]	.	8a	.	.
.	.	.	.	(16ddd	.	.	.	.
8r	.	8r	.	16ccc#X	.	8r	.	.
.	.	.	.	16dddJJ	.	.	.	.
=128	=128	=128	=128	=128	=128	=128	=128	=128
!	!	!	!	!	!	!LO:TX:b:Bi:t=p	!	!
4r	.	4r	.	16aa'LL)	.	4r	.	.
.	.	.	.	(16bb-	.	.	.	.
.	.	.	.	16ff	.	.	.	.
.	.	.	.	16ggJJ	.	.	.	.
16r	.	16r	.	16aa'LL)	.	16r	.	.
16DLL	.	16ALL	.	(16ff	.	(16aLL	.	V43/V
16D	.	16Bn	.	16gg	.	16f	.	.
16DJJ	.	16BJJ	.	16ffJJ)	.	16gJJ)	.	.
=129	=129	=129	=129	=129	=129	=129	=129	=129
8C	.	2c	.	[4ee	.	(16gLL	.	V
.	.	.	.	.	.	16e	.	.
8r	.	.	.	.	.	16g)	.	.
.	.	.	.	.	.	16g'JJ	.	.
4r	.	.	.	16eeLL]	.	(16gLL	.	.
.	.	.	.	(16G	.	16e	.	.
.	.	.	.	16e)	.	16cc)	.	.
.	.	.	.	32r	.	32r	.	.
.	.	.	.	32e'JJk	.	32cc'JJk	.	.
=130	=130	=130	=130	=130	=130	=130	=130	=130
2r	.	2G	.	(16dLL	.	(4cc	.	V(4)/V
.	.	.	.	16g	.	.	.	.
.	.	.	.	16dd)	.	.	.	.
.	.	.	.	16dd'JJ	.	.	.	.
.	.	.	.	(16ddLL	.	4bn)	.	V7/V
.	.	.	.	16g	.	.	.	.
.	.	.	.	16ff)	.	.	.	.
.	.	.	.	32r	.	.	.	.
.	.	.	.	32ff'JJk	.	.	.	.
=131	=131	=131	=131	=131	=131	=131	=131	=131
2C	.	4r	.	4ff	.	16r	.	V(4)
.	.	.	.	.	.	(16cLL	.	.
.	.	.	.	.	.	16g)	.	.
.	.	.	.	.	.	16g'JJ	.	.
.	.	16r	.	4ee	.	(16gLL	.	V7
.	.	(16CLL	.	.	.	16c	.	.
.	.	16G)	.	.	.	16b-)	.	.
.	.	32r	.	.	.	32r	.	.
.	.	32G'JJk	.	.	.	32b-'JJk	.	.
=132	=132	=132	=132	=132	=132	=132	=132	=132
2FF	.	(16GLL	.	4r	.	(4b-	.	I(4)
.	.	16C	.	.	.	.	.	.
.	.	16F)	.	.	.	.	.	.
.	.	16F'JJ	.	.	.	.	.	.
.	.	(16FLL	.	16r	.	[4a)	.	I
.	.	16C	.	(16ALL	.	.	.	.
.	.	16A)	.	16f)	.	.	.	.
.	.	32r	.	32r	.	.	.	.
.	.	32A'JJk	.	32f'JJk	.	.	.	.
=133	=133	=133	=133	=133	=133	=133	=133	=133
!	!	!LO:TX:b:i:t=cresc.	!	!LO:TX:b:i:t=cresc.	!	!LO:TX:b:i:t=cresc.	!	!
(4FF	.	2F 2A	.	[4f	.	16aLL]	.	.
.	.	.	.	.	.	(16A	.	.
.	.	.	.	.	.	16a)	.	.
.	.	.	.	.	.	16aJJ	.	.
!LO:TX:b:i:t=cresc.	!	!	!	!	!	!	!	!
4CC#X	.	.	.	16fLL]	.	16aLL	.	V+/vi
.	.	.	.	(16f	.	(16a	.	.
.	.	.	.	16ff)	.	16aa)	.	.
.	.	.	.	32r	.	32r	.	.
.	.	.	.	32ff'JJk	.	32aa'JJk	.	.
=134	=134	=134	=134	=134	=134	=134	=134	=134
8CCL	.	(4E-X	.	(8ff#XL	.	[4aa	.	#viio43/ii
8C	.	.	.	8f#X	.	.	.	.
8BBn	>	8DL	>	8g	>	(16aaLL]	>	V6/V
.	.	.	.	.	.	16gg	.	.
[8BB-XJ)	]]	8GJ)	]]	8eJ)	]]	16eee	.	V2
.	.	.	.	.	.	16dddJJ)	]]	.
=135	=135	=135	=135	=135	=135	=135	=135	=135
!	!	!LO:TX:a:Bi:t=p	!	!	!	!	!	!
!LO:TX:a:Bi:t=p	!	!LO:TX:a:Bi:t=p	!	!	!	!LO:TX:a:Bi:t=p	!	!
8BB-L]	.	16r	.	16r	.	(16ggLL	.	.
.	.	16F'LL	.	16c'LL	.	16ff)	.	.
8AA'J	.	16C'	.	16f'	.	(16ddd	.	I6
.	.	16C'JJ	.	16f'JJ	.	16cccJJ)	.	.
8BB-'L	.	16r	.	16r	.	(16ffLL	.	ii65
.	.	16C'LL	.	16G'LL	.	16ee)	.	.
8C'J	.	16G'	.	16e'	.	(16ddd	.	V
.	.	16G'JJ	.	16e'JJ	.	16cccJJ)	.	.
*clefC4	*	*	*	*	*	*	*	*
=136	=136	=136	=136	=136	=136	=136	=136	=136
!	!	!LO:TX:b:Bi:t=cresc.	!	!	!	!	!	!
!LO:TX:b:Bi:t=cresc.	!	!LO:TX:a:Bi:t=cresc.	!	!	!	!LO:TX:b:Bi:t=cresc.	!	!
8F'L	.	4.A	.	24ffLL	.	[2ccc	.	I6
.	.	.	.	24cc	.	.	.	.
.	.	.	.	24ddJJ	.	.	.	.
8A'	.	.	.	24ccLL	.	.	.	.
.	.	.	.	24a	.	.	.	.
.	.	.	.	24b-JJ	.	.	.	.
8c'	.	.	.	24aLL	.	.	.	.
.	.	.	.	24f	.	.	.	.
.	.	.	.	24gJJ	.	.	.	.
8f'J	.	24aLL	.	8A 8f	.	.	.	.
.	.	24g	.	.	.	.	.	.
.	.	24fJJ	.	.	.	.	.	.
=137	=137	=137	=137	=137	=137	=137	=137	=137
8e'L	.	24b-LL	.	8r	.	8ccc'L]	.	V65
.	.	24g	.	.	.	.	.	.
.	.	24eJJ	.	.	.	.	.	.
8g'J	.	24B-LL	.	8G 8e	.	8eee'J	.	.
.	.	24G	.	.	.	.	.	.
.	.	24EJJ	.	.	.	.	.	.
4b-	.	8C	.	24cLL	.	8ggg'L	.	V7
.	.	.	.	24e	.	.	.	.
.	.	.	.	24gJJ	.	.	.	.
.	.	8r	.	24ccLL	.	8bbb-'J	.	.
.	.	.	.	24ee	.	.	.	.
.	.	.	.	24ggJJ	.	.	.	.
=138	=138	=138	=138	=138	=138	=138	=138	=138
!LO:TX:a:Bi:t=cresc.	!	!	!	!LO:TX:a:Bi:t=cresc.	!	!LO:TX:b:Bi:t=cresc.	!	!
4r	.	24gLL	.	24bb-LL	.	8cc'L	.	V43
.	.	24e	.	24gg	.	.	.	.
.	.	24fJJ	.	24aaJJ	.	.	.	.
.	.	24B-LL	.	24ggLL	.	8ee'J	.	viio64
.	.	24G	.	24ee	.	.	.	.
.	.	24AJJ	.	24ffJJ	.	.	.	.
8r	.	24GLL	.	24eeLL	.	8gg'L	.	viio6
.	.	24E	.	24cc	.	.	.	.
.	.	24FJJ	.	24ddJJ	.	.	.	.
24eLL	.	8E	.	24gLL 24cc	.	8bb-'J	.	V65
24d	.	.	.	24f	.	.	.	.
24cJJ	.	.	.	24eJJ	.	.	.	.
=139	=139	=139	=139	=139	=139	=139	=139	=139
24fLL	.	4r	.	4r	.	8aa'L	.	I
24c	.	.	.	.	.	.	.	.
24AJJ	.	.	.	.	.	.	.	.
*clefF4	*	*	*	*	*	*	*	*
24FLL	.	.	.	.	.	8ccc'J	.	.
24C	.	.	.	.	.	.	.	.
24AAJJ	.	.	.	.	.	.	.	.
8FF	.	8f'L	.	24aLL	.	[4fff	.	V7/IV
.	.	.	.	24cc	.	.	.	.
.	.	.	.	24ee-XJJ	.	.	.	.
8r	.	8cc'J	.	24aaLL	.	.	.	.
.	.	.	.	24ccc	.	.	.	.
.	.	.	.	24eee-XJJ	.	.	.	.
=140	=140	=140	=140	=140	=140	=140	=140	=140
!	!	!	!	!	!	!LO:TX:a:Bi:t=f	!	!
!	!	!LO:TX:a:Bi:t=f	!	!LO:TX:a:Bi:t=f	!	!LO:TX:a:Bi:t=sfp	!	!
2r	.	24b-LL	.	8ddd'L	.	4.fff]	.	IV
.	.	24f	.	.	.	.	.	.
.	.	24gJJ	.	.	.	.	.	.
.	.	24fLL	.	8dd'	.	.	.	.
.	.	24d	.	.	.	.	.	.
.	.	24e-XJJ	.	.	.	.	.	.
.	.	24dLL	.	8ff'	.	.	.	.
.	.	24B-	.	.	.	.	.	.
.	.	24cJJ	.	.	.	.	.	.
.	.	8B-	.	8bb-'J	.	24dddLL	.	.
.	.	.	.	.	.	24ccc	.	.
.	.	.	.	.	.	24bb-JJ	.	.
=141	=141	=141	=141	=141	=141	=141	=141	=141
!LO:TX:a:Bi:t=f	!	!	!	!	!	!LO:TX:a:Bi:t=sfp	!	!
8FF'L	.	4r	.	8aa'L	.	24eee-XLL	.	V7/IV
.	.	.	.	.	.	24ccc	.	.
.	.	.	.	.	.	24aaJJ	.	.
8AA'	.	.	.	8ccc'J	.	24ee-XLL	.	.
.	.	.	.	.	.	24cc	.	.
.	.	.	.	.	.	24aJJ	.	.
8C'	.	24FLL	.	4eee-X	.	8f	.	.
.	.	24A	.	.	.	.	.	.
.	.	24cJJ	.	.	.	.	.	.
8F'J	.	24fLL	.	.	.	8r	.	.
.	.	24a	.	.	.	.	.	.
.	.	24ccJJ	.	.	.	.	.	.
=142	=142	=142	=142	=142	=142	=142	=142	=142
!LO:TX:a:Bi:t=sf	!	!	!	!LO:TX:a:Bi:t=sf	!	!LO:TX:b:Bi:t=cresc.	!	!
8A'L	.	24ee-XLL	.	4r	.	8ff'L	.	.
.	.	24cc	.	.	.	.	.	.
.	.	24ddJJ	.	.	.	.	.	.
8c'J	.	24ccLL	.	.	.	8aa'	.	.
.	.	24a	.	.	.	.	.	.
.	.	24b-JJ	.	.	.	.	.	.
4e-X	.	24aLL	.	8r	.	8ccc'	.	.
.	.	24f	.	.	.	.	.	.
.	.	24gJJ	.	.	.	.	.	.
.	.	8f	.	24aaLL	.	8eee-X'J	.	.
.	.	.	.	24gg	.	.	.	.
.	.	.	.	24ffJJ	.	.	.	.
=143	=143	=143	=143	=143	=143	=143	=143	=143
8F'L	.	4r	.	24bb-LL	.	8ddd'L	.	IV64
.	.	.	.	24ff	.	.	.	.
.	.	.	.	24ddJJ	.	.	.	.
8B-'J	.	.	.	24b-LL	.	8fff'J	.	IV
.	.	.	.	24f	.	.	.	.
.	.	.	.	24dJJ	.	.	.	.
4d	.	24b-LL	.	8B-	.	[4bbb-	.	.
.	.	24f	.	.	.	.	.	.
.	.	24dJJ	.	.	.	.	.	.
.	.	24B-LL	.	8r	.	.	.	.
.	.	24F	.	.	.	.	.	.
.	.	24DJJ	.	.	.	.	.	.
=144	=144	=144	=144	=144	=144	=144	=144	=144
!	!	!	!	!	!	!LO:TX:a:Bi:t=sf	!	!
8CC'L	.	8E'L	.	4r	.	24bbb-LL]	.	V7
.	.	.	.	.	.	24gg	.	.
.	.	.	.	.	.	24eeJJ	.	.
8EE'	.	8G'J	.	.	.	24b-LL	.	.
.	.	.	.	.	.	24g	.	.
.	.	.	.	.	.	24eJJ	.	.
8GG'	>	4E 4G	>]	8e'L	>	24B-LL	>	.
.	.	.	.	.	.	24e	.	.
.	.	.	.	.	.	24gJJ	.	.
8C'J	]]	.	.	8g'J	]]	24b-LL	.	.
.	.	.	.	.	.	24ee	.	.
.	.	.	.	.	.	24ggJJ	]]	.
*clefC4	*	*	*	*	*	*	*	*
=145	=145	=145	=145	=145	=145	=145	=145	=145
!LO:TX:a:Bi:t=pp	!	!	!	!LO:TX:a:Bi:t=pp	!	!LO:TX:a:Bi:t=pp	!	!
24cLL	.	24gLL	.	24eLL	.	24bb-LL	.	.
24c	.	24d	.	24f	.	24gg	.	.
24cJJ	.	24eJJ	.	24gJJ	.	24eeJJ	.	.
24fLL	.	24fLL	.	24aLL	.	24ccLL	.	I
24f	.	24g	.	24b-	.	24ff	.	.
24fJJ	.	24fJJ	.	24aJJ	.	24aaJJ	.	.
24fLL	.	24fLL	.	24b-LL	.	24aaLL	.	I(64)
24f	.	24b-	.	24cc	.	24ff	.	.
24fJJ	.	24b-JJ	.	24ddJJ	.	24ddJJ	.	.
24fLL	.	24b-LL	.	24ee-XLL	.	24b-LL	.	.VII
24e-X	.	24g	.	24b-	.	24ee-X	.	.
24e-JJ	.	24gJJ	.	24b-JJ	.	24ggJJ	.	.
=146	=146	=146	=146	=146	=146	=146	=146	=146
24enLL	.	24gLL	.	24aLL	.	24ggLL	.	V43/vi
24e	.	24g	.	24bn	.	24ee	.	.
24eJJ	.	24gJJ	.	24cc#XJJ	.	24cc#XJJ	.	.
24eLL	.	24gLL	.	24aLL	.	24aLL	.	vi
24d	.	24f	.	24a	.	24dd	.	.
24dJJ	.	24fJJ	.	24aJJ	.	24ffJJ	.	.
24GLL	.	24dLL 24f	.	24bLL	.	24ffLL	.	V7/V
24A	.	24d 24f	.	24ccn	.	24dd	.	.
24BnJJ	.	24dJJ 24f	.	24ddJJ	.	24bnJJ	.	.
24cLL	.	24eLL	.	24gLL	.	24eeLL	.	V
24d	.	24f	.	24g	.	24ccn	.	.
24cJJ	.	24eJJ	.	24gJJ	.	24gJJ	.	.
=147	=147	=147	=147	=147	=147	=147	=147	=147
[2GG#X	> < [[	[2G#X	> < [[	(8fL	<	(8ffL	<	#viio/iii
.	.	.	.	8c	.	8cc	.	.
.	.	.	.	8f)	[ >	8ff)	[ >	.
.	.	.	.	8d'J	]]	8dd'J	]]	.
=148	=148	=148	=148	=148	=148	=148	=148	=148
(8GG#L]	[	(8G#L]	[	(4c	.	(4.cc	.	V2
8AA	.	8A	.	.	.	.	.	.
8BB-)	.	8B-)	.	16gLL	.	.	.	.
.	.	.	.	16c	.	.	.	.
8GGn'J	.	8Gn'J	.	16d	.	16ddLL	.	viio6
.	.	.	.	16eJJ)	.	16eeJJ)	.	.
=149	=149	=149	=149	=149	=149	=149	=149	=149
!LO:TX:b:Bi:t=cresc.	!	!LO:TX:b:Bi:t=cresc.	!	!LO:TX:b:Bi:t=cresc.	!	!LO:TX:a:Bi:t=cresc.	!	!
(8FFL	.	(8FL	.	(8fL	.	(8ffL	.	I
8E	.	8e	.	8c#X	.	8gg	.	V43/vi
8G)	.	8g)	.	8cc#X)	.	8aa)	.	.
8D'J	.	8d'J	.	8ff'J	.	8aa'J	.	vi
=150	=150	=150	=150	=150	=150	=150	=150	=150
!LO:TX:a:Bi:t=p	!	!	!	!	!	!	!	!
(8C#XL	.	(8c#XL	.	(8eeL	.	(8aaL	.	V6/vi
8A	.	8e	.	8cc#X	.	8gg	.	V7/vi
8d)	.	8f)	.	8a	.	8ff	.	vi
8G#X'J	.	8f'J	.	8bnJ)	.	8ddJ)	.	#viio7/iii
=151	=151	=151	=151	=151	=151	=151	=151	=151
!	!	!	!	!LO:TX:b:Bi:t=pp	!	!	!	!
!LO:TX:a:Bi:t=pp	!	!LO:TX:b:Bi:t=pp	!	!LO:TX:a:Bi:t=pp	!	!	!	!
8AL	.	16f'LL	.	16a'LL	.	(16ddLL	.	V7/vi
.	.	16e'	.	16a'	.	16cc#X)	.	.
8A	.	16e'	.	16g'	.	16cc#'	.	.
.	.	16e'JJ	.	16g'JJ	.	16dd'JJ	.	.
8B-	.	16eLL	.	16gLL	.	(16ddLL	.	V2
.	.	16e	.	16g	.	16ccn)	.	.
8B-J	.	16e	.	16g	.	16cc'	.	.
.	.	16eJJ	.	16gJJ	.	16cc'JJ	.	.
=152	=152	=152	=152	=152	=152	=152	=152	=152
8cnL	.	16ALL	.	16fLL	.	(16ccLL	.	I6
.	.	16F	.	16f	.	16a)	.	I
8c	.	16F	.	16f	.	16a'	.	.
.	.	16FJJ	.	16fJJ	.	16b-'JJ	.	I(64)
8d	.	16FLL	.	16fLL	.	16b-'LL	.	.
.	.	16F	.	16f	.	16bn'	.	I[viio6/V
8dJ	.	16F	.	16f	.	16b'	.	.
.	.	16fJJ	.	16aJJ	.	16cc'JJ	.	I]
=153	=153	=153	=153	=153	=153	=153	=153	=153
8r	.	24aLL	.	24ffLL	.	24ccLL	.	V+/vi
.	.	24a	.	24ff	.	24cc#X	.	.
.	.	24aJJ	.	24ffJJ	.	24cc#JJ	.	.
24aLL	.	24fLL	.	24ffLL	.	24cc#LL	.	vi64
24a	.	24f	.	24ff	.	24dd	.	.
24aJJ	.	24fJJ	.	24ffJJ	.	24dddJJ	.	.
8r	.	24fLL	.	24b-LL 24ff	.	24dddLL	.	IV
.	.	24f	.	24b- 24ff	.	24ccc#X	.	.
.	.	24fJJ	.	24b-JJ 24ff	.	24ccc#JJ	.	.
24B-LL	.	24fLL	.	24b-LL 24ff	.	24ccc#LL	.	.
24B-	.	24f	.	24b- 24ff	.	24cccn	.	.
24B-JJ	.	24fJJ	.	24b-JJ 24ff	.	24cccJJ	.	.
=154	=154	=154	=154	=154	=154	=154	=154	=154
!	!	!LO:TX:a:Bi:t=p	!	!	!	!	!	!
!	!	!LO:TX:b:Bi:t=cresc.	!	!	!	!	!	!
!LO:TX:a:Bi:t=cresc.	!	!LO:TX:a:Bi:t=cresc.	!	!	!	!LO:TX:a:Bi:t=cresc.	!	!
8r	.	24fLL	.	24aLL 24ff	.	24cccLL	.	I
.	.	24f	.	24a 24ff	.	24aa	.	.
.	.	24fJJ	.	24aJJ 24ff	.	24bb-JJ	.	.
24cLL	.	24fLL	.	24aLL 24ff	.	24bb-LL	.	I64
24c	.	24f	.	24a 24ff	.	24bbn	.	.
24cJJ	.	24fJJ	.	24aJJ 24ff	.	24cccJJ	.	.
24dLL	.	24fLL	.	24b-LL 24ff	.	(24cccLL	.	IV6
24d	.	24f	.	24b- 24ff	.	24ddd	.	.
24dJJ	.	24fJJ	.	24b-JJ 24ff	.	24cccJJ	.	.
24eLL	.	24gLL 24b-	.	24ccLL	.	24bb-XLL	.	V65
24e	.	24g 24b-	.	24cc	.	24aa	.	.
24e'JJ	.	24gJJ 24b-	.	24ccJJ	.	24ggJJ)	.	.
=155	=155	=155	=155	=155	=155	=155	=155	=155
!LO:TX:a:Bi:t=cresc.	!	!LO:TX:a:Bi:t=cresc.	!	!LO:TX:a:Bi:t=cresc.	!	!LO:TX:a:Bi:t=cresc.	!	!
(4F	.	(4A	.	[2cc	.	4ff	.	I
4G)	.	4B-)	.	.	.	(24eeLL	.	V43
.	.	.	.	.	.	24ddd	.	.
.	.	.	.	.	.	24cccJJ	.	.
.	.	.	.	.	.	24bb-LL	.	.
.	.	.	.	.	.	24aa	.	.
.	.	.	.	.	.	24ggJJ)	.	.
=156	=156	=156	=156	=156	=156	=156	=156	=156
!LO:TX:a:Bi:t=p	!	!	!	!	!	!	!	!
!LO:TX:a:Bi:t=p	!	!	!	!LO:TX:a:Bi:t=p	!	!LO:TX:a:Bi:t=p	!	!
8A'L	.	8c'L	.	8cc'L]	.	8ff'L	.	I6
8B-'J	.	8d'	.	8g'J	.	8gg'	.	ii6
(24cLL	.	8e'	.	(24GLL	.	8cc'J	.	V7
24D	.	.	.	24f	.	.	.	.
24CJJ	.	.	.	24eJJ	.	.	.	.
24BB-LL	.	[8ccJ	.	24dLL	.	8r	.	.
24AA	.	.	.	24c	.	.	.	.
24GGJJ)	.	.	.	24B-JJ)	.	.	.	.
=157	=157	=157	=157	=157	=157	=157	=157	=157
!	!	!LO:TX:a:Bi:t=cresc.	!	!	!	!	!	!
!LO:TX:b:Bi:t=cresc.	!	!LO:TX:a:Bi:t=cresc.	!	!	!	!LO:TX:b:Bi:t=cresc.	!	!
(4FF	.	4cc_	.	(4A	.	24r	.	I\\
.	.	.	.	.	.	(24cccLL	.	.
.	.	.	.	.	.	24bb-JJ	.	.
.	.	.	.	.	.	24aaLL	.	I
.	.	.	.	.	.	24gg	.	.
.	.	.	.	.	.	24ffJJ	.	.
4GG)	.	(24ccLL]	.	4B-)	.	24eeLL	.	V43
.	.	24dd	.	.	.	24ddd	.	.
.	.	24ccJJ	.	.	.	24cccJJ	.	.
.	.	24b-LL	.	.	.	24bb-LL	.	.
.	.	24a	.	.	.	24aa	.	.
.	.	24gJJ)	.	.	.	24ggJJ)	.	.
=158	=158	=158	=158	=158	=158	=158	=158	=158
8AA'L	.	(24fLL	.	8c'L	.	8ff'L	.	I6
.	.	24a	.	.	.	.	.	.
.	.	24gJJ	.	.	.	.	.	.
8BB-'	.	24fLL	.	8d'J	.	8gg'	.	ii65
.	.	24e	.	.	.	.	.	.
.	.	24dJJ)	.	.	.	.	.	.
8C'J	.	(24cLL	.	24GLL	.	8cc'	.	V
.	.	24d	.	(24dd	.	.	.	.
.	.	24cJJ	.	24ccJJ	.	.	.	.
8c'	.	24B-LL	.	24b-LL	.	8ee'J 8eee	.	V7
.	.	24A	.	24a	.	.	.	.
.	.	24GJJ)	.	24gJJ)	.	.	.	.
=159	=159	=159	=159	=159	=159	=159	=159	=159
!LO:TX:a:Bi:t=f	!	!	!	!	!	!	!	!
!LO:TX:a:Bi:t=f	!	!LO:TX:a:Bi:t=f	!	!	!	!LO:TX:b:Bi:t=f	!	!
8AA'	.	8C' 8c	.	8cc'	.	8ff#X' 8fff#X	.	#viio6/ii
8r	.	8r	.	8r	.	8r	.	.
4r	.	8r	.	8r	.	16.r	.	.
.	.	.	.	.	.	(32aaKLL	.	.
.	.	(8a	.	((8c 8d	.	16dd	.	V2/ii
.	.	.	.	.	.	16ff#JJ	.	.
=160	=160	=160	=160	=160	=160	=160	=160	=160
!	!	!LO:TX:a:Bi:t=p	!	!	!	!	!	!
!	!	!LO:TX:a:Bi:t=p	!	!LO:TX:a:Bi:t=p	!	!	!	!
4r	.	8g')	.	8B-')) 8d	.	8gg')	.	ii6
.	.	8r	.	8r	.	8r	.	.
8r	.	16.r	.	16.r	.	4r	.	V7
.	.	(32B-KLL	.	(32gKLL	.	.	.	.
(8C	.	16E	.	16c	.	.	.	.
.	.	16GJJ	.	16eJJ	.	.	.	.
=161	=161	=161	=161	=161	=161	=161	=161	=161
!LO:TX:b:Bi:t=p	!	!	!	!LO:TX:a:Bi:t=p	!	!	!	!
8FF')	.	8C') 8A	.	8f')	.	4r	.	I\\
8r	.	8r	.	8r	.	.	.	.
4r	.	8r	.	8r	.	16r	.	.
.	.	.	.	.	.	32r	.	.
.	.	.	.	.	.	(32aaKLL	.	.
.	.	(8cc	.	[8dd	.	16dd	.	V2/ii
.	.	.	.	.	.	16ff#XJJ	.	.
=162	=162	=162	=162	=162	=162	=162	=162	=162
4r	.	8b-')	.	8dd']	.	8gg')	.	ii6
.	.	8r	.	8r	.	8r	.	.
8r	.	16.r	.	16.r	.	8r	.	.
.	.	(32B-KLL	.	(32gKLL	.	.	.	.
(8C	.	16E	.	16c	.	8r	.	V
.	.	16GJJ	.	16eJJ	.	.	.	.
=163	=163	=163	=163	=163	=163	=163	=163	=163
8CC')	.	8E') 8G	.	8g')	.	2r	.	.
8r	.	8r	.	8r	.	.	.	.
4r	.	4r	.	(8f#XL	.	.	.	.
.	.	.	.	8gJ	.	.	.	.
=164	=164	=164	=164	=164	=164	=164	=164	=164
.	.	.	.	.	.	(32qqdd/LLL	.	I6
.	.	.	.	.	.	32qqee/JJJ	.	.
2r	.	2r	.	8G#XL	.	(4ffn)	.	.
.	.	.	.	8A	.	.	.	.
.	.	.	.	8e	.	8..ccL	.	I
.	.	.	.	8fnJ	.	.	.	.
.	.	.	.	.	.	32ddJkk)	.	.
=165	=165	=165	=165	=165	=165	=165	=165	=165
(32qqEE/LLL	.	.	.	.	.	.	.	.
32qqFF#X/JJJ	.	.	.	.	.	.	.	.
8GG)	.	4r	.	8eL	.	8bn	.	V/V
8r	.	.	.	8dJ)	.	8r	.	.
4r	.	(8c#XL	.	4r	.	4r	.	.
.	.	8dJ	.	.	.	.	.	.
=166	=166	=166	=166	=166	=166	=166	=166	=166
(32qqAA/LLL	.	.	.	.	.	.	.	.
32qqBB-/JJJ	.	.	.	.	.	.	.	.
(4C)	.	8D#XL	.	2r	.	2r	.	V43
.	.	8E	.	.	.	.	.	.
8..GGL	.	8cn	.	.	.	.	.	.
.	.	8B-J)	.	.	.	.	.	.
32AAJkk)	.	.	.	.	.	.	.	.
=167	=167	=167	=167	=167	=167	=167	=167	=167
8FF	.	(8B-L	.	2r	.	4r	.	I
8r	.	8AJ)	.	.	.	.	.	.
(32qqCC/LLL	.	.	.	.	.	.	.	.
32qqDD/JJJ	.	.	.	.	.	.	.	.
8EE)	.	4r	.	.	.	(8ff#XL	.	V6
8r	.	.	.	.	.	8ggJ	.	.
=168	=168	=168	=168	=168	=168	=168	=168	=168
.	.	.	.	(32qqd/LLL	.	.	.	.
.	.	.	.	32qqe/JJJ	.	.	.	.
2r	.	2r	.	(4f)	.	8g#XL	.	I
.	.	.	.	.	.	8aJ	.	.
.	.	.	.	8..cL	.	8eeL	.	V
.	.	.	.	.	.	8ffnJ	.	vi
.	.	.	.	32dJkk)	.	.	.	.
=169	=169	=169	=169	=169	=169	=169	=169	=169
.	.	(32qqe/LLL	.	.	.	.	.	.
.	.	32qqf#X/JJJ	.	.	.	.	.	.
4r	.	8g)	.	4Bn	.	8eeL	.	V6/V
.	.	8r	.	.	.	8ddJ)	.	.
.	.	.	.	(32qqdd/LLL	.	.	.	.
.	.	.	.	32qqee/JJJ	.	.	.	.
(8c#XL	.	4r	.	8ff)	.	4r	.	vi
8dJ	.	.	.	8r	.	.	.	.
=170	=170	=170	=170	=170	=170	=170	=170	=170
.	.	.	.	.	.	(32qqgg/LLL	.	V65
!	!	!	!	!LO:TX:a:Bi:t=p	!	!	!	!
.	.	.	.	.	.	32qqaa/JJJ	.	.
8D#XL	.	2r	.	4r	.	(4bb-)	.	.
8E	.	.	.	.	.	.	.	.
8c	.	.	.	24eLL	.	[8.ffL	.	V(4)
.	.	.	.	24g	.	.	.	.
.	.	.	.	24ccJJ	.	.	.	.
8B-J)	.	.	.	24eeLL	.	.	.	.
.	.	.	.	24gg	.	.	.	.
.	.	.	.	.	.	48ggLL	.	V2
.	.	.	.	24cccJJ	.	48ff]	.	.
.	.	.	.	.	.	48ggJJJ)	.	.
=171	=171	=171	=171	=171	=171	=171	=171	=171
.	.	.	.	.	.	(32qqff/LLL	.	I
.	.	.	.	.	.	32qqgg/JJJ	.	.
(8EL	.	2r	.	8ccc	.	(4aa)	.	.
8F	.	.	.	8r	.	.	.	.
8c	.	.	.	24fLL	.	8..eeL	.	.
.	.	.	.	24a	.	.	.	.
.	.	.	.	24ccJJ	.	.	.	.
8AJ)	.	.	.	24ffLL	.	.	.	.
.	.	.	.	24aa	.	.	.	.
.	.	.	.	24cccJJ	.	.	.	.
.	.	.	.	.	.	32ffJkk)	.	.
=172	=172	=172	=172	=172	=172	=172	=172	=172
.	.	.	.	.	.	(32qqgg/LLL	.	V7
!LO:TX:a:Bi:t=cresc.	!	!	!	!	!	!	!	!
!LO:TX:a:Bi:t=cresc.	!	!LO:TX:a:Bi:t=cresc.	!	!	!	!LO:TX:a:Bi:t=cresc.	!	!
.	.	.	.	.	.	32qqaa/JJJ	.	.
4r	.	24CLL	.	(8d#XL	.	(4bb-)	.	V7(#2)
.	.	24E	.	.	.	.	.	.
.	.	24GJJ	.	.	.	.	.	.
.	.	24cLL	.	8e	.	.	.	.
.	.	24e	.	.	.	.	.	.
.	.	24ryy	.	.	.	.	.	.
(32qqc/LLL	.	.	.	.	.	.	.	.
32qqd/JJJ	.	.	.	.	.	.	.	.
8e)	.	8b-	.	8cc	.	8..ffL	.	V65(4)
8r	.	8r	.	8b-J)	.	.	.	.
.	.	.	.	.	.	32ggJkk)	.	.
=173	=173	=173	=173	=173	=173	=173	=173	=173
.	.	.	.	.	.	(32qqff/LLL	.	V(64)
.	.	.	.	.	.	32qqgg/JJJ	.	.
24CCLL	.	4r	.	(8eL	.	(4aa)	.	.
24FF	.	.	.	.	.	.	.	.
24AAJJ	.	.	.	.	.	.	.	.
24CLL	.	.	.	8f	.	.	.	.
24F	.	.	.	.	.	.	.	.
24AJJ	.	.	.	.	.	.	.	.
.	.	(32qqf/LLL	.	.	.	.	.	.
.	.	32qqg/JJJ	.	.	.	.	.	.
8A	.	8a)	.	8cc	.	8..eeL	.	.
8r	.	8r	.	8aJ)	.	.	.	.
.	.	.	.	.	.	32ffJkk)	.	.
=174	=174	=174	=174	=174	=174	=174	=174	=174
.	.	(32qqG/LLL	.	(32qqg/LLL	.	.	.	.
.	.	32qqA/JJJ	.	32qqa/JJJ	.	.	.	.
24CCLL	.	4B-)	.	4b-)	.	(8dd#XL	.	V7
24EE	.	.	.	.	.	.	.	.
24GGJJ	.	.	.	.	.	.	.	.
24CLL	.	.	.	.	.	8ee	.	.
24E	.	.	.	.	.	.	.	.
24GJJ	.	.	.	.	.	.	.	.
(32qqG/LLL	.	.	.	.	.	.	.	.
32qqA/JJJ	.	.	.	.	.	.	.	.
8B-)	.	(8..FL	.	(8..fL	.	8ccc	.	.
8r	.	.	.	.	.	8bb-J)	.	.
.	.	32GJkk)	.	32gJkk)	.	.	.	.
=175	=175	=175	=175	=175	=175	=175	=175	=175
.	.	(32qqF/LLL	.	(32qqf/LLL	.	.	.	.
.	.	32qqG/JJJ	.	32qqg/JJJ	.	.	.	.
24CCLL	.	4A)	.	4a)	.	(8eeL	.	V(64)
24FF	.	.	.	.	.	.	.	.
24AAJJ	.	.	.	.	.	.	.	.
24CLL	.	.	.	.	.	8ff	.	.
24F	.	.	.	.	.	.	.	.
24AJJ	.	.	.	.	.	.	.	.
(32qqF/LLL	.	.	.	.	.	.	.	.
32qqG/JJJ	.	.	.	.	.	.	.	.
8A)	.	(8..EL	.	(8..eL	.	8ccc	.	.
8r	.	.	.	.	.	8aaJ)	.	.
.	.	32FJkk)	.	32fJkk)	.	.	.	.
=176	=176	=176	=176	=176	=176	=176	=176	=176
(32qqG/LLL	.	(32qqG/LLL	.	(32qqg/LLL	.	(32qqgg/LLL	.	viio64
!	!	!	!	!LO:TX:b:Bi:t=f	!	!	!	!
!	!	!	!	!LO:TX:a:Bi:t=f	!	!	!	!
32qqA/JJJ	.	32qqA/JJJ	.	32qqa/JJJ	.	32qqaa/JJJ	.	.
8B-')	.	8B-')	.	8b-')	.	8bb-')	.	.
(32qqe/LLL	.	(32qqe/LLL	.	(32qqe/LLL	.	(32qqee/LLL	.	.
32qqf/JJJ	.	32qqf/JJJ	.	32qqf/JJJ	.	32qqff/JJJ	.	.
8g')	.	8g')	.	8g')	.	8gg')	.	.
(32qqc/LLL	.	(32qqc/LLL	.	(32qqc/LLL	.	(32qqcc/LLL	.	.
32qqd/JJJ	.	32qqd/JJJ	.	32qqd/JJJ	.	32qqdd/JJJ	.	.
8e')	.	8e')	.	8e')	.	8ee')	.	.
(32qqG/LLL	.	(32qqG/LLL	.	(32qqg/LLL	.	(32qqg/LLL	.	.
32qqA/JJJ	.	32qqA/JJJ	.	32qqa/JJJ	.	32qqa/JJJ	.	.
8B-')	.	8B-')	.	8b-')	.	8b-')	.	.
=177	=177	=177	=177	=177	=177	=177	=177	=177
(32qqE/LLL	.	(32qqE/LLL	.	(32qqe/LLL	.	(32qqe/LLL	.	V7
32qqF/JJJ	.	32qqF/JJJ	.	32qqf/JJJ	.	32qqf/JJJ	.	.
8G')	.	8G')	.	8g')	.	8g')	.	.
(32qqC/LLL	.	(32qqC/LLL	.	(32qqc/LLL	.	(32qqc/LLL	.	.
32qqD/JJJ	.	32qqD/JJJ	.	32qqd/JJJ	.	32qqd/JJJ	.	.
8E')	.	8E')	.	8e')	.	8e')	.	.
(32qqGG/LLL	.	(32qqG/LLL	.	(32qqG/LLL	.	(32qqG/LLL	.	.
!LO:TX:b:Bi:t=p	!	!LO:TX:b:Bi:t=p	!	!	!	!	!	!
32qqAA/JJJ	.	32qqA/JJJ	.	32qqA/JJJ	.	32qqA/JJJ	.	.
(24BB-LL)	.	(24B-LL)	.	8B-')	.	8B-')	.	.
24D	.	24d	.	.	.	.	.	.
24CJJ	.	24cJJ	.	.	.	.	.	.
24BB-LL	.	24B-LL	.	8r	.	8r	.	.
24AA	.	24A	.	.	.	.	.	.
24GGJJ)	.	24GJJ)	.	.	.	.	.	.
=178	=178	=178	=178	=178	=178	=178	=178	=178
(4FF	.	(4F	.	24r	.	2r	.	V43
!	!	!	!	!LO:TX:b:Bi:t=p	!	!	!	!
.	.	.	.	(24ccLL	.	.	.	.
.	.	.	.	24b-JJ	.	.	.	.
.	.	.	.	24aLL	.	.	.	.
.	.	.	.	24g	.	.	.	.
.	.	.	.	24fJJ	.	.	.	.
4GG)	.	24ELL	.	24eLL	.	.	.	.
.	.	24d	.	24dd	.	.	.	.
.	.	24cJJ	.	24ccJJ	.	.	.	.
.	.	24B-LL	.	24b-LL	.	.	.	.
.	.	24A	.	24a	.	.	.	.
.	.	24GJJ)	.	24gJJ)	.	.	.	.
=179	=179	=179	=179	=179	=179	=179	=179	=179
8AA'L	.	8F'L	.	8f'L	.	4r	.	ii6
8BB-'	.	8G'	.	8g'J	.	.	.	.
8C'J	.	8C'J	.	24c'LL	.	24r	.	V7
!	!	!	!	!	!	!LO:TX:b:Bi:t=p	!	!
.	.	.	.	(24dd	.	(24dddLL	.	.
.	.	.	.	24ccJJ	.	24cccJJ	.	.
(16DLL	.	(16FLL	.	24b-LL	.	24bb-LL	.	IV6
.	.	.	.	24a	.	24aa	.	.
16EJJ)	.	16GJJ)	.	.	.	.	.	.
.	.	.	.	24gJJ)	.	24ggJJ)	.	viio
=180	=180	=180	=180	=180	=180	=180	=180	=180
!	!	!	!	!LO:TX:b:i:t=cresc.	!	!LO:TX:b:i:t=cresc.	!	!
(4F	.	24r	.	(4A	.	(24ffLL	.	I
!	!	!LO:TX:b:i:t=cresc.	!	!	!	!	!	!
.	.	(24ccLL	.	.	.	24cc	.	.
.	.	24b-JJ	.	.	.	24eeJJ	.	.
.	.	24aLL	.	.	.	24ffLL	.	.
.	.	24g	.	.	.	24gg	.	.
.	.	24fJJ	.	.	.	24aaJJ	.	.
4G)	.	4e)	.	4B-)	.	24eeLL	.	V43
.	.	.	.	.	.	24ddd	.	.
.	.	.	.	.	.	24cccJJ	.	.
.	.	.	.	.	.	24bb-LL	.	.
.	.	.	.	.	.	24aa	.	.
.	.	.	.	.	.	24ggJJ)	.	.
=181	=181	=181	=181	=181	=181	=181	=181	=181
8A'L	.	8f'L	.	8c'L	.	8ff'L	.	I6
8B-'	.	8dd'	.	8d'	.	8gg'	.	ii6
8c'J	.	8cc'J	.	8c'J	.	8cc'J	.	V
!LO:TX:b:Bi:t=f	!	!LO:TX:b:Bi:t=f	!	!LO:TX:b:Bi:t=f	!	!LO:TX:b:Bi:t=f	!	!
8EE-X'	.	8E-X'	.	8e-X'	.	8ccc'	.	v6
=182	=182	=182	=182	=182	=182	=182	=182	=182
.	.	.	.	.	.	(32qqaa/LLL	<	.
!LO:TX:b:Bi:t=p	!	!LO:TX:b:Bi:t=p	!	!LO:TX:b:Bi:t=p	!	!LO:TX:a:Bi:t=p	!	!
.	.	.	.	.	.	32qqbb-/JJJ	.	.
2EE-X	< > ]]	2E-X	> < [[	(4.e-X	<	(4ccc)	.	.
.	.	.	.	.	.	8..ggL	>	.
.	.	.	.	8c)	>]	.	.	.
.	.	.	.	.	.	32aaJkk)	] ]]	.
=183	=183	=183	=183	=183	=183	=183	=183	=183
8EE-X'	]	8E-X'	[	8a'	]	8ff#X'	.	#viio2/ii
.	.	(32qqa/LLL	.	(32qqaa/LLL	.	.	.	.
.	.	32qqb-/JJJ	.	32qqbb-/JJJ	.	.	.	.
8r	.	8cc')	.	8ccc')	.	8r	.	.
4r	.	4r	.	4r	.	4r	.	.
=184	=184	=184	=184	=184	=184	=184	=184	=184
(32qqC/LLL	.	(32qqc/LLL	.	(32qqcc/LLL	.	(32qqccc/LLL	.	.bVII
!LO:TX:b:Bi:t=f	!	!LO:TX:b:Bi:t=f	!	!LO:TX:b:Bi:t=f	!	!LO:TX:b:Bi:t=f	!	!
32qqD/JJJ	.	32qqd/JJJ	.	32qqdd/JJJ	.	32qqddd/JJJ	.	.
4E-X)	.	4e-X)	.	4ee-X)	.	4eee-X)	.	.
(8..BB-L	.	(8..B-L	.	(8..b-L	.	(8..bb-L	.	.
32CJkk)	.	32cJkk)	.	32ccJkk)	.	32cccJkk)	.	.
=185	=185	=185	=185	=185	=185	=185	=185	=185
8AA'	.	8A'	.	8a'	.	8aa'	.	viio/IV
.	.	(32qqcc/LLL	.	.	.	(32qqccc/LLL	.	.
!	!	!LO:TX:a:Bi:t=sf	!	!	!	!LO:TX:b:Bi:t=sf	!	!
.	.	32qqdd/JJJ	.	.	.	32qqddd/JJJ	.	.
8r	.	8ee-X')	.	8r	.	8eee-X')	.	.
(32qqC/LLL	.	.	.	.	.	.	.	.
!LO:TX:b:Bi:t=f	!	!	!	!	!	!	!	!
32qqD/JJJ	.	.	.	.	.	.	.	.
8E-X)	.	16.r	.	4r	.	4r	.	V2/IV
!	!	!LO:TX:b:Bi:t=p	!	!	!	!	!	!
.	.	(32cKLL	.	.	.	.	.	.
8r	.	16F	.	.	.	.	.	.
.	.	16AJJ)	.	.	.	.	.	.
=186	=186	=186	=186	=186	=186	=186	=186	=186
!LO:TX:a:Bi:t=p	!	!	!	!	!	!	!	!
!LO:TX:a:t=pizz.	!	!	!	!	!	!	!	!
8DL	.	8B-	.	16.r	.	4r	.	IV6
!	!	!	!	!LO:TX:a:Bi:t=p	!	!	!	!
.	.	.	.	(32ddKLL	.	.	.	.
8D	.	8r	.	16f	.	.	.	.
.	.	.	.	16b-JJ	.	.	.	.
8AA	.	4r	.	8cc'L)	.	16.r	.	V65/IV
!	!	!	!	!	!	!LO:TX:b:Bi:t=p	!	!
.	.	.	.	.	.	(32ee-XKLL	.	.
8FFJ	.	.	.	8A'J	.	16f	.	.
.	.	.	.	.	.	16ccJJ)	.	.
=187	=187	=187	=187	=187	=187	=187	=187	=187
!LO:TX:a:t=arco	!	!	!	!	!	!	!	!
8r	.	4r	.	8r	.	(16.ddLL	.	IV
.	.	.	.	.	.	32ee-XJJk)	.	.
(16.B-LL	.	.	.	(16.dLL	.	[8ff	.	.
32cJK	.	.	.	32e-XJJk)	.	.	.	.
8dJ)	.	8r	.	8fL	.	16ffLL]	.	.
.	.	.	.	.	.	32r	.	.
.	.	.	.	.	.	(32ggK	.	.
!LO:TX:a:t=pizz.	!	!	!	!	!	!	!	!
8B-	.	8G'	.	8c'J 8en	.	16cc	.	V2
.	.	.	.	.	.	16eenJJ	.	.
=188	=188	=188	=188	=188	=188	=188	=188	=188
8r	.	4r	.	16.r	.	8ff')	.	I6
.	.	.	.	(32aKLL	.	.	.	.
8AL	.	.	.	16c	.	8r	.	.
.	.	.	.	16fJJ	.	.	.	.
8E	.	16.r	.	8g'L)	.	8r	.	V6
.	.	(32B-KLL	.	.	.	.	.	.
8CJ	.	16C	.	8e'J	.	8gg	.	V
.	.	16GJJ)	.	.	.	.	.	.
=189	=189	=189	=189	=189	=189	=189	=189	=189
8r	.	(16.ALL	.	2r	.	8r	.	I6
.	.	32B-JJk)	.	.	.	.	.	.
!LO:TX:a:t=arco	!	!	!	!	!	!	!	!
(16.FLL	.	[8cL	.	.	.	(16.aaLL	.	I
32GJJk	.	.	.	.	.	32bb-JJk)	.	.
8A)	.	16cJk]	.	.	.	8ccc'L	.	I6
.	.	(16fLL	.	.	.	.	.	.
!LO:TX:a:t=pizz.	!	!	!	!	!	!	!	!
8B-	.	16e	.	.	.	8ddd'J	.	IV
.	.	16dJJ	.	.	.	.	.	.
=190	=190	=190	=190	=190	=190	=190	=190	=190
!LO:TX:a:t=arco	!	!	!	!	!	!	!	!
8r	.	16c')	.	16r	.	4r	.	ii6
.	.	(16B-LL	.	(16ddLL	.	.	.	.
(16GGLL	.	16D	.	16b-	.	.	.	.
16BB-JJ	.	16B-JJ	.	16gJJ	.	.	.	.
8C'L)	.	16A')	.	16f')	.	16r	.	V(64)
.	.	(16B-LL	.	(16gLL	.	(16ggLL	.	V7
8BB-'J	.	16G	.	16c	.	16ee	.	V2
.	.	16eJJ	.	16gJJ	.	16ccJJ	.	.
=191	=191	=191	=191	=191	=191	=191	=191	=191
!LO:TX:b:i:t=cresc.	!	!LO:TX:b:i:t=cresc.	!	!LO:TX:b:i:t=cresc.	!	!LO:TX:b:i:t=cresc.	!	!
8AAL	.	16.fLL	.	16.aLL	.	16.aaLL	.	I6
.	.	32gJJk)	.	32b-JJk)	.	32bb-JK)	.	.
(16.FFL	.	(16.ALL	.	[8f [8cc	.	[8cccJ	.	I
32GGJJk)	.	32B-JJk)	.	.	.	.	.	.
16.AA;	.	16.F; 16.c	.	16.f;] 16.cc]	.	16.ccc;]	.	I6
!	!	!LO:TX:b:Bi:t=p	!	!LO:TX:b:Bi:t=p	!	!LO:TX:b:Bi:t=p	!	!
32r	.	(32fKLL	.	(32ffKLL	.	(32fffKLL	.	.
!LO:TX:b:Bi:t=p	!	!	!	!	!	!	!	!
!LO:TX:a:t=pizz.	!	!	!	!	!	!	!	!
8BB-	.	16e	.	16ee	.	16eee	.	IV
.	.	16dJJ	.	16ddJJ	.	16dddJJ	.	.
=192	=192	=192	=192	=192	=192	=192	=192	=192
8r	.	16c')	.	16cc')	.	16ccc')	.	I
.	.	32r	.	32r	.	32r	.	.
.	.	(32dKLL	.	(32ddKLL	.	(32dddKLL	.	.
8BB-	.	16B-	.	16b-	.	16bb-	.	ii6
.	.	16GJJ	.	16gJJ	.	16ggJJ	.	.
16C	.	16F')	.	16f')	.	16ff')	.	V(4)
32r	.	32r	.	32r	.	32r	.	.
!LO:TX:a:t=arco	!	!	!	!	!	!	!	!
(32GGKLL	.	(32GKLL	.	(32gKLL	.	(32ggKLL	.	.
16EE	.	16E	.	16e	.	16ee	.	V
16CCJJ	.	16CJJ	.	16cJJ	.	16ccJJ	.	.
=193	=193	=193	=193	=193	=193	=193	=193	=193
8FF)	.	8F)	.	8A) 8f	.	8a) 8ff	.	I\\
8r	.	8r	.	8r	.	8r	.	.
4r;	.	4r;	.	4r;	.	4r;	.	.
==	==	==	==	==	==	==	==	==
*-	*-	*-	*-	*-	*-	*-	*-	*-
!!!system-decoration: [(s1,s2,s3,s4)]
!!!YEM: <font size="12"/><b><i>p</i></b><font size="12"/><b><i>cresc.</i></b>
